!!!!SEGMENT: pl-stab--9b--001-006_rodowski-aleksander--vespere-de-confessoribus-salve-regina.krn
!!!cenid: 18xx:3473
!!!COM: Rodowski, Aleksander
!!!COM-rismid: pe30009627
!!!CDT: <1790->1810
!!!CNT: Polish
!!!OPR: Vespere de Confessoribus
!!!OTL: Salve Regina
!!!OMV: 006
!!!PDT:
!!!AGN: Sacred; Vespers
!!!SMS-siglum: PL-STAb
!!!SMS-shelfmark: 9b
!!!SMS-shelfwork: 001-006 M
!!!SMS-variant:
!!!SMS-altvar:
!!!NIFC-rismid: 301050672
!!!URL-scan: https://repozytorium.nifc.pl/islandora/object/pl-stab%3A2141/datastream/PDF/view
!!!ONB-nifc: UWAGA: części Nieszporów: 1. Domine ad adjuvandum, 2. Dixit Dominus, 3. De torrente, 4. Laudate pueri, 5. Magnificat, 6. Salve Regina
!!!AIN: 1 bass 2 clars 2 cor 1 organ 1 soprn 2 violn
!!!key: F
**kern	**fba	**kern	**dynam	**kern	**dynam	**kern	**text	**kern	**text	**kern	**kern	**kern	**kern
*group5	*	*group4	*	*group4	*	*group3	*	*group3	*	*group2	*group2	*group1	*group1
*part9	*	*part8	*part8	*part7	*part7	*part6	*part6	*part5	*part5	*part4	*part3	*part2	*part1
*staff9	*	*staff8	*	*staff7	*	*staff6	*staff6	*staff5	*staff5	*staff4	*staff3	*staff2	*staff1
*I"Organo	*	*I"Violino Secundo	*	*I"Violino Primo	*	*I"Baſso	*	*I"Canto.	*	*I"Cornu IIdo	*I"Cornu Imo	*I"Clarinetto Secundo	*I"Clarinetto Primo
*I'[Org]	*	*I'[Vl 2]	*	*I'[Vl 1]	*	*I'[B]	*	*I'[S]	*	*I'[Cor 2]	*I'[Cor 1]	*I'[Cl 2]	*I'[Cl 1]
*Iorgan	*	*Ivioln	*	*Ivioln	*	*Ibass	*	*Isoprn	*	*Icor	*Icor	*Iclars	*Iclars
*ICklav	*	*ICstr	*	*ICstr	*	*ICvox	*	*ICvox	*	*ICbras	*ICbras	*ICww	*ICww
*IGcont	*	*IGacmp	*	*IGacmp	*	*IGcoro	*	*IGcoro	*	*IGacmp	*IGacmp	*IGacmp	*IGacmp
*clefF4	*	*clefG2	*	*clefG2	*	*clefF4	*	*clefC1	*	*clefG2	*clefG2	*clefG2	*clefG2
*	*	*	*	*	*	*	*	*	*	*Trd0c0	*Trd0c0	*	*
*k[b-]	*	*k[b-]	*	*k[b-]	*	*k[b-]	*	*k[b-]	*	*k[b-]	*k[b-]	*k[b-]	*k[b-]
*F:	*	*F:	*	*F:	*	*F:	*	*F:	*	*F:	*F:	*F:	*F:
*M2/4	*	*M2/4	*	*M2/4	*	*M2/4	*	*M2/4	*	*M2/4	*M2/4	*M2/4	*M2/4
=1	=1	=1	=1	=1	=1	=1	=1	=1	=1	=1	=1	=1	=1
!	!	!	!	!	!	!	!	!	!	!	!	!LO:TX:a:i:t=Aria	!LO:TX:a:i:t=Aria
!	!	!	!	!	!	!LO:TX:a:Bi:t=andante	!	!LO:TX:a:Bi:t=andante	!	!	!LO:TX:t=P:problem=zgodnie z RISM "cor 1, 2 missing" - uwzględniono ze względu na kartę tytułową	!LO:TX:a:Bi:t=andante	!LO:TX:a:Bi:t=andante
8F\	.	8A/L 8f/	.	8A/L 8f/	.	0r	.	0r	.	2ryy	2ryy	8a/	8ff\
8r	.	32f/LL	.	32f/LL	.	.	.	.	.	.	.	8r	8r
.	.	32a/	.	32a/	.	.	.	.	.	.	.	.	.
.	.	32cc/	.	32cc/	.	.	.	.	.	.	.	.	.
.	.	32a/JJJ	.	32a/JJJ	.	.	.	.	.	.	.	.	.
!!mixed beam:problem
!	!	!	!	!LO:TX:t=P:problem=mixed beam	!	!	!	!	!	!	!	!	!
8r	.	8f/L	.	8f/L	.	.	.	.	.	.	.	8r	8r
8F\	.	16f/L	.	8aa\J	.	.	.	.	.	.	.	8ff\	8aa\
.	.	16a/JJ	.	.	.	.	.	.	.	.	.	.	.
=2	=2	=2	=2	=2	=2	=2-	=2	=2-	=2	=2	=2	=2	=2
!!mixed beam:problem
!	!	!	!	!LO:TX:t=P:problem=mixed beam	!	!	!	!	!	!	!	!	!
8C/	.	8e/L 8cc/	.	8gg\L	.	.	.	.	.	2ryy	2ryy	8ee\	8gg\
8r	.	32c/LL	.	32c/LL	.	.	.	.	.	.	.	8r	8r
.	.	32e/	.	32e/	.	.	.	.	.	.	.	.	.
.	.	32g/	.	32g/	.	.	.	.	.	.	.	.	.
.	.	32e/JJJ	.	32e/JJJ	.	.	.	.	.	.	.	.	.
!!mixed beam:problem
!	!	!	!	!LO:TX:t=P:problem=mixed beam	!	!	!	!	!	!	!	!	!
8r	.	8c/L	.	8c/L	.	.	.	.	.	.	.	8r	8r
8E\	.	16e/L	.	8bb-\J	.	.	.	.	.	.	.	8gg\	8bb-\
.	.	16g/JJ	.	.	.	.	.	.	.	.	.	.	.
=3	=3	=3	=3	=3	=3	=3-	=3	=3-	=3	=3	=3	=3	=3
4F\	.	16f/KL	.	8aa\L	.	.	.	.	.	2ryy	2ryy	8ff\L	8aa\L
.	.	8f/	.	.	.	.	.	.	.	.	.	.	.
.	.	.	.	8ff\	.	.	.	.	.	.	.	8dd\	8ff\
.	.	8f/	.	.	.	.	.	.	.	.	.	.	.
4r	.	.	.	8ee\	.	.	.	.	.	.	.	8cc\	8ee\
.	.	8f/	.	.	.	.	.	.	.	.	.	.	.
.	.	.	.	8dd\J	.	.	.	.	.	.	.	8b-\J	8dd\J
.	.	16f/Jk	.	.	.	.	.	.	.	.	.	.	.
=4	=4	=4	=4	=4	=4	=4-	=4	=4-	=4	=4	=4	=4	=4
!!mixed beam:problem
!LO:TX:t=P:problem=mixed beam	!	!	!	!	!	!	!	!	!	!	!	!	!
8F\L	.	8f/L	.	8.cc\L	.	.	.	.	.	2ryy	2ryy	8.a\L	8.cc\L
8A\	.	16a/L	.	.	.	.	.	.	.	.	.	.	.
.	.	16b-/JJ	.	16dd\Jk	.	.	.	.	.	.	.	16b-\Jk	16dd\Jk
8c\	.	16a/LL	.	16cc\LL	.	.	.	.	.	.	.	16a\LL	16cc\LL
.	.	16g/	.	16b-\	.	.	.	.	.	.	.	16g\	16b-\
8C/J	.	16f/	.	16a\	.	.	.	.	.	.	.	16f\	16a\
.	.	16g/JJ	.	16b-\JJ	.	.	.	.	.	.	.	16g\JJ	16b-\JJ
=5	=5	=5	=5	=5	=5	=5-	=5	=5-	=5	=5	=5	=5	=5
4F\	.	16f/KL	.	8a\L	.	0r	.	0r	.	2ryy	2ryy	8f/	8a\
.	.	8f/	.	.	.	.	.	.	.	.	.	.	.
.	.	.	.	8ff\J	.	.	.	.	.	.	.	8r	8r
.	.	8f/	.	.	.	.	.	.	.	.	.	.	.
4r	.	.	.	16ee\LL	.	.	.	.	.	.	.	4r	4r
.	.	8f/	.	16gg\	.	.	.	.	.	.	.	.	.
.	.	.	.	16ff\	.	.	.	.	.	.	.	.	.
.	.	16f/Jk	.	16dd\JJ	.	.	.	.	.	.	.	.	.
=6	=6	=6	=6	=6	=6	=6-	=6	=6-	=6	=6	=6	=6	=6
!!mixed beam:problem
!LO:TX:t=P:problem=mixed beam	!	!	!	!	!	!	!	!	!	!	!	!	!
8F\L	.	16f/LL	.	16cc\LL	.	.	.	.	.	2ryy	2ryy	8.aa\L	8.ccc\L
.	.	16a/	.	16ff\	.	.	.	.	.	.	.	.	.
8A\	.	16cc/	.	16aa\	.	.	.	.	.	.	.	.	.
.	.	16a/JJ	.	16cc\JJ	.	.	.	.	.	.	.	16ff\Jk	16aa\Jk
8c\	.	16a/LL	.	16cc\LL	.	.	.	.	.	.	.	16aa\LL	16ccc\LL
.	.	16g/	.	16b-\	.	.	.	.	.	.	.	16gg\	16bb-\
8C/J	.	16f/	.	16a\	.	.	.	.	.	.	.	16ff\	16aa\
.	.	16e/JJ	.	16g\JJ	.	.	.	.	.	.	.	16ee\JJ	16gg\JJ
=7	=7	=7	=7	=7	=7	=7-	=7	=7-	=7	=7	=7	=7	=7
8F\L	5 4	32f/LLL	.	32a/LLL	.	.	.	.	.	2ryy	2ryy	8ff\	8ff\
.	.	32A/	.	32f/	.	.	.	.	.	.	.	.	.
.	.	32G/	.	32e/	.	.	.	.	.	.	.	.	.
.	.	32A/JJJ	.	32f/JJJ	.	.	.	.	.	.	.	.	.
!	!	!LO:LB:g=original	!	!	!	!	!	!	!	!	!	!	!
8F\	.	32G/LLL	.	32e/LLL	.	.	.	.	.	.	.	8r	8r
.	.	32A/	.	32f/	.	.	.	.	.	.	.	.	.
.	.	32G/	.	32e/	.	.	.	.	.	.	.	.	.
.	.	32A/JJJ	.	32f/JJJ	.	.	.	.	.	.	.	.	.
8F\	6 4	16d/LL	.	4b-/	.	.	.	.	.	.	.	16dd\LL	4bb-\
.	.	16e/	.	.	.	.	.	.	.	.	.	16ee\	.
8F\J	.	16f/	.	.	.	.	.	.	.	.	.	16ff\	.
.	.	16g/JJ	.	.	.	.	.	.	.	.	.	16gg\JJ	.
=8	=8	=8	=8	=8	=8	=8-	=8	=8-	=8	=8	=8	=8	=8
*2\right	*	*	*	*	*	*	*	*	*	*	*	*	*
*tremolo	*	*	*	*	*	*	*	*	*	*	*	*	*
8F\L	8 3	32f/LLL	.	32a/LLL	.	.	.	.	.	2ryy	2ryy	8ff\	8aa\
.	.	32A/	.	32f/	.	.	.	.	.	.	.	.	.
.	.	32G/	.	32e/	.	.	.	.	.	.	.	.	.
.	.	32A/	.	32f/JJJ	.	.	.	.	.	.	.	.	.
8F\	.	32G/	.	32e/LLL	.	.	.	.	.	.	.	8r	8r
.	.	32A/	.	32f/	.	.	.	.	.	.	.	.	.
.	.	32G/	.	32e/	.	.	.	.	.	.	.	.	.
.	.	32A/JJJ	.	32f/JJJ	.	.	.	.	.	.	.	.	.
8F\	6 4	16b-\LL	.	4dd/	.	.	.	.	.	.	.	4bb-\	4ddd\
.	.	16a\	.	.	.	.	.	.	.	.	.	.	.
8F\J	.	16b-\	.	.	.	.	.	.	.	.	.	.	.
.	.	16g\JJ	.	.	.	.	.	.	.	.	.	.	.
*Xtremolo	*	*	*	*	*	*	*	*	*	*	*	*	*
!	!	!	!	!LO:LB:g=original	!	!	!	!	!	!	!	!	!
=9	=9	=9	=9	=9	=9	=9-	=9	=9-	=9	=9	=9	=9	=9
8F\L	.	16a/LL	.	16cc/LL	.	0r	.	0r	.	2ryy	2ryy	16aa\LL	16ccc\LL
.	.	16f/JJ	.	16a/JJ	.	.	.	.	.	.	.	16ff\JJ	16aa\JJ
8d\	.	16r	.	16r	.	.	.	.	.	.	.	16r	16r
.	.	16f/	.	16a/	.	.	.	.	.	.	.	16ff\	16aa\
!	!	!	!	!	!	!	!	!	!	!	!	!LO:LB:g=original	!
8B-\	.	16d/LL	.	16b-/LL	.	.	.	.	.	.	.	16gg\LL	16bb-\LL
.	.	16B-/JJ	.	16g/JJ	.	.	.	.	.	.	.	16ee\JJ	16gg\JJ
8c\J	.	16r	.	16r	.	.	.	.	.	.	.	16r	16r
.	.	16G/	.	16e/	.	.	.	.	.	.	.	16ee\	16gg\
!	!	!	!	!	!	!	!	!	!	!	!	!	!LO:LB:g=original
=10	=10	=10	=10	=10	=10	=10-	=10	=10-	=10	=10	=10	=10	=10
4F\	.	16f/LL	.	16a/LL	.	.	.	.	.	2ryy	2ryy	8ff\	8aa\
.	.	16g/	.	16b-/	.	.	.	.	.	.	.	.	.
.	.	16a/	.	16cc/	.	.	.	.	.	.	.	8r	8r
.	.	16b-/JJ	.	16dd/JJ	.	.	.	.	.	.	.	.	.
4r	.	16cc\LL	.	16ee\LL	.	.	.	.	.	.	.	4r	4r
.	.	16dd\	.	16ff\	.	.	.	.	.	.	.	.	.
.	.	16cc\	.	16ee\	.	.	.	.	.	.	.	.	.
.	.	16b-\JJ	.	16dd\JJ	.	.	.	.	.	.	.	.	.
!LO:LB:g=original	!	!	!	!	!	!	!	!	!	!	!	!	!
=11	=11	=11	=11	=11	=11	=11-	=11	=11-	=11	=11	=11	=11	=11
8F\L	.	16a/LL	.	16cc\LL	.	.	.	.	.	2ryy	2ryy	16aa\LL	16ccc\LL
.	.	16f/JJ	.	16a\JJ	.	.	.	.	.	.	.	16ff\JJ	16aa\JJ
8d\	.	16r	.	16r	.	.	.	.	.	.	.	16r	16r
.	.	16f/	.	16a/	.	.	.	.	.	.	.	16ff\	16aa\
8B-\	.	16d/LL	.	16b-/LL	.	.	.	.	.	.	.	16gg\LL	16bb-\LL
.	.	16B-/JJ	.	16g/JJ	.	.	.	.	.	.	.	16ee\JJ	16gg\JJ
8c\J	.	16r	.	16r	.	.	.	.	.	.	.	16r	16r
.	.	16G/	.	16e/	.	.	.	.	.	.	.	16ee\	16gg\
=12	=12	=12	=12	=12	=12	=12-	=12	=12-	=12	=12	=12	=12	=12
*tremolo	*	*	*	*	*	*	*	*	*	*	*	*	*
8F\L	5 3	16f/LL	.	8A/ 8f/	.	.	.	.	.	2ryy	2ryy	8a/	8ff\
.	.	16c/	.	.	.	.	.	.	.	.	.	.	.
8F\	.	16A/	.	16r	.	.	.	.	.	.	.	16r	16r
.	.	16c/JJ	.	16A/ 16f/	.	.	.	.	.	.	.	16a/	16ff\
8F\	7 4	16B-/LL	.	4G/ 4e/	.	.	.	.	.	.	.	8.b-/L	8.gg\L
.	.	16c/	.	.	.	.	.	.	.	.	.	.	.
8F\J	.	16B-/	.	.	.	.	.	.	.	.	.	.	.
.	.	16c/JJ	.	.	.	.	.	.	.	.	.	16cc/Jk	16aa\Jk
=13	=13	=13	=13	=13	=13	=13-	=13	=13-	=13	=13	=13	=13	=13
8F\L	8 x	16A/LL	.	8A/ 8f/	.	1r	.	1r	.	2ryy	2ryy	8a/	8ff\
.	.	16c/	.	.	.	.	.	.	.	.	.	.	.
8F\	.	16A/	.	16r	.	.	.	.	.	.	.	16r	16r
.	.	16c/JJ	.	16A/ 16f/	.	.	.	.	.	.	.	16a/	16ff\
!	!	!LO:LB:g=original	!	!	!	!	!	!	!	!	!	!	!
8F\	7 4	16B-/LL	.	4G/ 4e/	.	.	.	.	.	.	.	8.b-/L	8.gg\L
.	.	16c/	.	.	.	.	.	.	.	.	.	.	.
8F\J	.	16B-/	.	.	.	.	.	.	.	.	.	.	.
.	.	16c/JJ	.	.	.	.	.	.	.	.	.	16cc/Jk	16aa\Jk
*Xtremolo	*	*	*	*	*	*	*	*	*	*	*	*	*
=14	=14	=14	=14	=14	=14	=14-	=14	=14-	=14	=14	=14	=14	=14
!	!	!	!	!	!	!	!	!	!	!	!	!LO:TX:t=P:problem=mixed beam	!
8F\	.	8A/ 8f/	.	8A/ 8f/	.	.	.	.	.	2ryy	2ryy	8a/L	8ff\L
8r	.	8r	.	8r	.	.	.	.	.	.	.	16.aa\L	16.ccc\L
.	.	.	.	.	.	.	.	.	.	.	.	32gg\JJk	32bb-\JJk
8F\	.	8A/ 8f/	.	8A/ 8f/	.	.	.	.	.	.	.	8ff\L	8aa\L
8r	.	8r	.	8r	.	.	.	.	.	.	.	16.aa\L	16.ccc\L
.	.	.	.	.	.	.	.	.	.	.	.	32gg\JJk	32bb-\JJk
=15	=15	=15	=15	=15	=15	=15-	=15	=15-	=15	=15	=15	=15	=15
8F\L	.	16.A/LL	.	16f/LL	.	2r	.	2r	.	2ryy	2ryy	16ff\LL	16.aa\LL
.	.	.	.	16g/	.	.	.	.	.	.	.	16gg\	.
.	.	32B-/K	.	.	.	.	.	.	.	.	.	.	32bb-\K
8F\	.	16.c/	.	16.a/	.	.	.	.	.	.	.	16aa\	16.ccc\
.	.	.	.	.	.	.	.	.	.	.	.	16gg\JJ	.
.	.	32B-/JJk	.	32g/JJk	.	.	.	.	.	.	.	.	32bb-\JJk
8F\J	.	8A/	.	8A/ 8f/	.	.	.	.	.	.	.	8ff\	8aa\
8r	.	8r	.	8r	.	.	.	.	.	.	.	8r	8r
=16	=16	=16	=16	=16	=16	=16	=16	=16	=16	=16	=16	=16	=16
!	!	!	!LO:DY:a:t=p.:rj	!	!LO:DY:b:rj:t=p.	!LO:TX:a:i:t=Aria Solo	!	!LO:TX:a:i:t=Solo	!	!	!	!	!
8F\	.	8A/ 8f/	p	8A/ 8f/	p	8r	.	4r	.	2ryy	2ryy	0r	0r
8r	.	8r	.	8r	.	16.c\LL	Sal-	.	.	.	.	.	.
.	.	.	.	.	.	32A\JJk	.	.	.	.	.	.	.
8r	.	8r	.	8r	.	8F\	-ve	8r	.	.	.	.	.
8F\	.	8a/	.	8ff\	.	8r	.	8aa\	Sal-	.	.	.	.
=17	=17	=17	=17	=17	=17	=17	=17	=17	=17	=17	=17	=17-	=17-
8C/	.	8g/	.	8ee\	.	8r	.	8gg\	-ve	2ryy	2ryy	.	.
*	*	*	*	*	*	*	*ij	*	*ij	*	*	*	*
8r	.	8r	.	8r	.	16.G\LL	Sal-	8r	.	.	.	.	.
.	.	.	.	.	.	32E\JJk	.	.	.	.	.	.	.
8r	.	8r	.	8r	.	8C/	-ve	8r	.	.	.	.	.
8C/	.	8b-/	.	8gg\	.	8r	.	8bb-\	Sal-	.	.	.	.
=18	=18	=18	=18	=18	=18	=18	=18	=18	=18	=18	=18	=18-	=18-
!!mixed beam:problem
!	!	!	!	!LO:TX:t=P:problem=mixed beam	!	!	!	!	!	!	!	!	!
4F\	.	8a/L	.	8ff\L	.	8r	.	8aa\	-ve	2ryy	2ryy	.	.
.	.	8d/	.	8f/	.	8d\	Sal-	8ff\	Sal-	.	.	.	.
4r	.	8c/	.	8e/	.	8c\	-ve	8ee\	-ve	.	.	.	.
*	*	*	*	*	*	*	*Xij	*	*Xij	*	*	*	*
.	.	8B-/J	.	8d/J	.	8B-\	re-	8dd\	re-	.	.	.	.
!	!	!	!	!LO:LB:g=original	!	!	!	!	!	!	!	!	!
=19	=19	=19	=19	=19	=19	=19	=19	=19	=19	=19	=19	=19-	=19-
!!mixed beam:problem
!LO:TX:t=P:problem=mixed beam	!	!LO:TX:t=P:problem=mixed beam	!	!	!	!	!	!	!	!	!	!	!
8F\L	.	16A/LL	.	16c/LL	.	(>4A\	-gi-	(>4cc\	-gi-	2ryy	2ryy	.	.
.	.	16cc\	.	16aa\	.	.	.	.	.	.	.	.	.
8A\	.	16a\	.	16ff\	.	.	.	.	.	.	.	.	.
.	.	16b-\JJ	.	16dd\JJ	.	.	.	.	.	.	.	.	.
8c\	.	16a\LL	.	16cc\LL	.	4G\)	.	4b-T>\)	.	.	.	.	.
.	.	16b-\	.	16dd\	.	.	.	.	.	.	.	.	.
8C/J	.	16a\	.	16cc\	.	.	.	.	.	.	.	.	.
.	.	16g\JJ	.	16b-\JJ	.	.	.	.	.	.	.	.	.
=20	=20	=20	=20	=20	=20	=20	=20	=20	=20	=20	=20	=20-	=20-
4F\	.	8f/L	.	8a/L	.	8F\	-na	8a\	-na	2ryy	2ryy	0r	0r
.	.	8d/	.	8f/	.	8d\	sal-	8ff\	Sal-	.	.	.	.
4r	.	8c/	.	8e/	.	8c\	-ve	8ee\	-ve	.	.	.	.
.	.	8B-/J	.	8d/J	.	8B-\	re-	8dd\	re-	.	.	.	.
!	!	!	!	!	!	!	!	!LO:LB:g=original	!	!	!	!	!
=21	=21	=21	=21	=21	=21	=21	=21	=21	=21	=21	=21	=21-	=21-
!!mixed beam:problem
!LO:TX:t=P:problem=mixed beam	!	!	!	!LO:TX:t=P:problem=mixed beam	!	!	!	!	!	!	!	!	!
8F\L	.	16A/LL	.	16c/LL	.	4A\	-gi-	4cc\	-gi-	2ryy	2ryy	.	.
.	.	16cc/	.	16aa\	.	.	.	.	.	.	.	.	.
8A\	.	16a/	.	16ff\	.	.	.	.	.	.	.	.	.
.	.	16b-/JJ	.	16dd\JJ	.	.	.	.	.	.	.	.	.
8c\	.	16a/LL	.	16cc\LL	.	(>16A\LL	.	(>16cc\LL	.	.	.	.	.
.	.	16d/	.	16b-\	.	16G\	.	16b-\	.	.	.	.	.
8C/J	.	16c/	.	16a\	.	16F\	.	16a\	.	.	.	.	.
.	.	16B-/JJ	.	16g\JJ	.	16G\JJ)	.	16b-\JJ)	.	.	.	.	.
=22	=22	=22	=22	=22	=22	=22	=22	=22	=22	=22	=22	=22-	=22-
4F\	.	8A/	.	8f/	.	8F\	-na	8a\	-na	2ryy	2ryy	.	.
.	.	8r	.	8r	.	8r	.	8ff\	Ma-	.	.	.	.
4r	.	4r	.	4r	.	4r	.	8ff\	-ter	.	.	.	.
.	.	.	.	.	.	.	.	8ff\	mi-	.	.	.	.
!LO:LB:g=original	!	!	!	!	!	!LO:LB:g=original	!	!	!	!	!	!	!
=23	=23	=23	=23	=23	=23	=23	=23	=23	=23	=23	=23	=23-	=23-
*tremolo	*	*tremolo	*	*tremolo	*	*	*	*	*	*	*	*	*
8F\L	n4 6	16g/LL	.	16d/LL 16bn/	.	8r	.	4ff\	-se-	2ryy	2ryy	.	.
.	.	16g/	.	16d/ 16b/	.	.	.	.	.	.	.	.	.
8F\	.	16g/	.	16d/ 16b/	.	8d\	Ma-	.	.	.	.	.	.
.	.	16g/	.	16d/ 16b/	.	.	.	.	.	.	.	.	.
8F\	.	16g/	.	16d/ 16b/	.	8d\	-ter	8ff\	-ri	.	.	.	.
.	.	16g/	.	16d/ 16b/	.	.	.	.	.	.	.	.	.
8F\J	.	16g/	.	16d/ 16b/	.	8d\	mi-	8ff\	mi-	.	.	.	.
.	.	16g/JJ	.	16d/JJ 16b/	.	.	.	.	.	.	.	.	.
!	!	!LO:LB:g=original	!	!	!	!	!	!	!	!	!	!	!
=24	=24	=24	=24	=24	=24	=24	=24	=24	=24	=24	=24	=24-	=24-
8E\L	6 3	16g/LL	.	16e/LL 16cc/	.	4c\	-se-	4ee\	-se-	2ryy	2ryy	1r	1r
.	.	16g/	.	16e/ 16cc/	.	.	.	.	.	.	.	.	.
8E\	.	16g/	.	16e/ 16cc/	.	.	.	.	.	.	.	.	.
.	.	16g/	.	16e/ 16cc/	.	.	.	.	.	.	.	.	.
8E\	.	16g/	.	16e/ 16cc/	.	8c\	-ri	8ee\	-ri	.	.	.	.
.	.	16g/	.	16e/ 16cc/	.	.	.	.	.	.	.	.	.
8E\J	.	16g/	.	16e/ 16cc/	.	8c\	mi-	8ee\	mi-	.	.	.	.
.	.	16g/JJ	.	16e/JJ 16cc/	.	.	.	.	.	.	.	.	.
*Xtremolo	*	*	*	*Xtremolo	*	*	*	*	*	*	*	*	*
=25	=25	=25	=25	=25	=25	=25	=25	=25	=25	=25	=25	=25-	=25-
4F\	x 3	16a/LL	.	16f/LL 16cc/	.	8A\	-se-	8ff\	-se-	2ryy	2ryy	.	.
.	.	16a/	.	16f/ 16cc/	.	.	.	.	.	.	.	.	.
.	.	16a/	.	16f/ 16dd/	.	8F\	-ri-	8dd\	-ri-	.	.	.	.
.	.	16a/JJ	.	16f/JJ 16dd/	.	.	.	.	.	.	.	.	.
*	*	*Xtremolo	*	*	*	*	*	*	*	*	*	*	*
!!mixed beam:problem
!LO:TX:t=P:problem=mixed beam	!	!	!	!	!	!	!	!	!	!	!	!	!
8G\L	x 4	16g/LL	.	16e/LL 16cc/	.	8G\	-cor-	8cc\	-cor-	.	.	.	.
.	.	16g/	.	16e/ 16cc/	.	.	.	.	.	.	.	.	.
!	!	!	!	!LO:SIC:v:n=1:s=16bn	!	!	!	!LO:SIC:v:s=8bn\	!	!	!	!	!
8GG/J	.	16f/	.	16d/ 16b-/	.	8GG/	-di-	8b-\	-di-	.	.	.	.
!	!	!	!	!LO:SIC:v:n=1:s=16bn	!	!	!	!	!	!	!	!	!
.	.	16f/JJ	.	16d/JJ 16b-/	.	.	.	.	.	.	.	.	.
=26	=26	=26	=26	=26	=26	=26	=26	=26	=26	=26	=26	=26-	=26-
8C/	.	16e/LL	.	16cc\LL	.	8C/	-e	8cc\	-e	2ryy	2ryy	2r	2r
.	.	16cc/	.	16ccc\	.	.	.	.	.	.	.	.	.
!	!	!	!	!	!LO:DY:b:t=for	!	!	!	!	!	!	!	!
8r	.	16cc/	.	16ccc\	f	8r	.	8r	.	.	.	.	.
.	.	16a/JJ	.	16aa\JJ	.	.	.	.	.	.	.	.	.
8r	.	16f#X/LL	.	16ff#X\LL	.	4r	.	4r	.	.	.	.	.
.	.	16g/	.	16gg\	.	.	.	.	.	.	.	.	.
8Bn\	.	16fn/	.	16ffn\	.	.	.	.	.	.	.	.	.
.	.	16d/JJ	.	16dd\JJ	.	.	.	.	.	.	.	.	.
!	!	!	!	!	!	!	!	!LO:LB:g=original	!	!	!	!	!
=27	=27	=27	=27	=27	=27	=27	=27	=27	=27	=27	=27	=27	=27
!!mixed beam:problem
!LO:TX:t=P:problem=mixed beam	!	!	!	!	!	!	!	!	!	!	!	!	!
8c\L	.	16e/LL	.	16ee\LL	.	0r	.	0r	.	2ryy	2ryy	8r	8r
.	.	16c/	.	16cc\	.	.	.	.	.	.	.	.	.
8F\	.	16f/	.	16a\	.	.	.	.	.	.	.	16r	16r
.	.	16a/JJ	.	16dd\JJ	.	.	.	.	.	.	.	16dd\	16ff\
8G\	.	8e/L	.	8cc\L	.	.	.	.	.	.	.	8cc\L	8ee\L
!	!	!	!	!LO:SIC:v:s=8bn\J	!	!	!	!	!	!	!	!LO:SIC:v:s=8bn\J	!
8GG/J	.	8d/J	.	8b-\J	.	.	.	.	.	.	.	8b-\J	8dd\J
!	!	!	!	!	!	!	!	!	!	!	!	!LO:LB:g=original	!LO:LB:g=original
=28	=28	=28	=28	=28	=28	=28-	=28	=28-	=28	=28	=28	=28	=28
8C/	.	16e/LL	.	16cc\LL	.	.	.	.	.	2ryy	2ryy	8cc\	8ee\
.	.	16cc/	.	16ccc\	.	.	.	.	.	.	.	.	.
8r	.	16cc/	.	16ccc\	.	.	.	.	.	.	.	8r	8r
.	.	16a/JJ	.	16aa\JJ	.	.	.	.	.	.	.	.	.
8r	.	16f#X/LL	.	16ff#X\LL	.	.	.	.	.	.	.	4r	4r
.	.	16g/	.	16gg\	.	.	.	.	.	.	.	.	.
8Bn\	.	16a/	.	16aa\	.	.	.	.	.	.	.	.	.
.	.	16fn/JJ	.	16ffn\JJ	.	.	.	.	.	.	.	.	.
!	!	!	!	!LO:LB:g=original	!	!	!	!	!	!	!	!	!
=29	=29	=29	=29	=29	=29	=29-	=29	=29-	=29	=29	=29	=29	=29
8c\L	.	16d#X/LL	.	16dd#X\LL	.	.	.	.	.	2ryy	2ryy	8r	8r
.	.	16e/	.	16ee\	.	.	.	.	.	.	.	.	.
8E\	.	16g/	.	16gg\	.	.	.	.	.	.	.	8ee\L	8gg\L
.	.	16e/JJ	.	16cc\JJ	.	.	.	.	.	.	.	.	.
8F\	.	16f/LL	.	16a\LL	.	.	.	.	.	.	.	8dd\	8ff\
.	.	16a/	.	16ff\	.	.	.	.	.	.	.	.	.
8G\J	.	16f/	.	16a\	.	.	.	.	.	.	.	8f\J	8dd\J
!	!	!LO:SIC:v:s=16dn/JJ	!	!LO:SIC:v:s=16bn\JJ	!	!	!	!	!	!	!	!	!
.	.	16d#/JJ	.	16b-\JJ	.	.	.	.	.	.	.	.	.
=30	=30	=30	=30	=30	=30	=30-	=30	=30-	=30	=30	=30	=30	=30
*	*	*tremolo	*	*	*	*	*	*	*	*	*	*	*
8C/L	5 3	16c/LL 16e/	.	4e/ 4cc/	.	.	.	.	.	2ryy	2ryy	16ee\LL	16gg\LL
.	.	16c/ 16e/	.	.	.	.	.	.	.	.	.	16ee\	16ccc\
8C/	6 4	16c/ 16e/	.	.	.	.	.	.	.	.	.	16cc\	16ee\
.	.	16c/JJ 16e/	.	.	.	.	.	.	.	.	.	16ee\JJ	16gg\JJ
*	*	*Xtremolo	*	*	*	*	*	*	*	*	*	*	*
8C/	7: 2:	16A/LL 16f/	.	16a/LL	.	.	.	.	.	.	.	4dd\	4ff\
.	.	16A/ 16f/	.	16ff/	.	.	.	.	.	.	.	.	.
8C/J	.	16d/ 16f/	.	16a/	.	.	.	.	.	.	.	.	.
!	!	!	!	!LO:SIC:v:s=16bn\JJ	!	!	!	!	!	!	!	!	!
.	.	16d/JJ 16f/	.	16b-/JJ	.	.	.	.	.	.	.	.	.
=31	=31	=31	=31	=31	=31	=31-	=31	=31-	=31	=31	=31	=31	=31
*tremolo	*	*tremolo	*	*	*	*	*	*	*	*	*	*	*
8C/L	.	16c/LL 16e/	.	4e/ 4cc/	.	1r	.	0r	.	2ryy	2ryy	16cc\LL	16ee\LL
.	.	16c/ 16e/	.	.	.	.	.	.	.	.	.	16ee\	16ccc\
8C/	.	16c/ 16e/	.	.	.	.	.	.	.	.	.	16cc\	16ee\
.	.	16c/JJ 16e/	.	.	.	.	.	.	.	.	.	16ee\JJ	16gg\JJ
*	*	*Xtremolo	*	*	*	*	*	*	*	*	*	*	*
8C/	.	16A/LL 16f/	.	16a/LL	.	.	.	.	.	.	.	4dd\	4ff\
.	.	16A/ 16f/	.	16ff/	.	.	.	.	.	.	.	.	.
8C/J	.	16d/ 16f/	.	16a/	.	.	.	.	.	.	.	.	.
!	!	!	!	!LO:SIC:v:s=16bn\JJ	!	!	!	!	!	!	!	!	!
.	.	16d/JJ 16f/	.	16b-/JJ	.	.	.	.	.	.	.	.	.
*Xtremolo	*	*	*	*	*	*	*	*	*	*	*	*	*
=32	=32	=32	=32	=32	=32	=32-	=32	=32-	=32	=32	=32	=32	=32
8C/L	.	8G/L 8e/	.	8e/L 8cc/	.	.	.	.	.	2ryy	2ryy	8cc\L	8ee\L
8C/	.	16.c/L	.	16.c/L	.	.	.	.	.	.	.	16.cc\L	16ee\L
.	.	.	.	.	.	.	.	.	.	.	.	.	16ee\JJ
.	.	32c/JJk	.	32c/JJk	.	.	.	.	.	.	.	32cc\JJk	.
!	!	!LO:LB:g=original	!	!	!	!	!	!	!	!	!	!	!
8C/J	.	8c/	.	8c/	.	.	.	.	.	.	.	8cc\	8ee\
8r	.	8r	.	8r	.	.	.	.	.	.	.	8r	8r
=33	=33	=33	=33	=33	=33	=33	=33	=33-	=33	=33	=33	=33	=33
*tremolo	*	*	*	*	*	*	*	*	*	*	*	*	*
8C/L	5: 3:	32c/LLL	.	16r	.	4c\	Vi-	.	.	2ryy	2ryy	0r	0r
.	.	32e/	.	.	.	.	.	.	.	.	.	.	.
!	!	!	!	!	!LO:DY:b:t=p.	!	!	!	!	!	!	!	!
.	.	32g/	.	16cc/LL	p	.	.	.	.	.	.	.	.
.	.	32e/JJJ	.	.	.	.	.	.	.	.	.	.	.
*	*	*rep	*	*	*	*	*	*	*	*	*	*	*
8C/	.	32c/LLL	.	16g/	.	.	.	.	.	.	.	.	.
.	.	32e/	.	.	.	.	.	.	.	.	.	.	.
.	.	32g/	.	16e/JJ	.	.	.	.	.	.	.	.	.
.	.	32e/JJJ	.	.	.	.	.	.	.	.	.	.	.
*	*	*Xrep	*	*	*	*	*	*	*	*	*	*	*
*	*	*rep	*	*	*	*	*	*	*	*	*	*	*
8C/	.	32c/LLL	.	32c/LLL	.	8C/	-ta	.	.	.	.	.	.
.	.	32e/	.	32e/	.	.	.	.	.	.	.	.	.
.	.	32g/	.	32f/	.	.	.	.	.	.	.	.	.
.	.	32e/JJJ	.	32g/JJJ	.	.	.	.	.	.	.	.	.
*	*	*Xrep	*	*	*	*	*	*	*	*	*	*	*
*	*	*rep	*	*	*	*	*	*	*	*	*	*	*
8C/J	.	32c/LLL	.	32a/LLL	.	16r	.	.	.	.	.	.	.
!	!	!	!	!LO:SIC:v:s=32bn/	!	!	!	!	!	!	!	!	!
.	.	32e/	.	32b-/	.	.	.	.	.	.	.	.	.
.	.	32g/	.	32cc/	.	16c\	dul-	.	.	.	.	.	.
.	.	32e/JJJ	.	32dd/JJJ	.	.	.	.	.	.	.	.	.
*	*	*Xrep	*	*	*	*	*	*	*	*	*	*	*
=34	=34	=34	=34	=34	=34	=34	=34	=34-	=34	=34	=34	=34-	=34-
*	*	*rep	*	*	*	*	*	*	*	*	*	*	*
8C/L	.	32c/LLL	.	16ee\LL	.	4e\	-ce-	.	.	2ryy	2ryy	.	.
.	.	32e/	.	.	.	.	.	.	.	.	.	.	.
.	.	32g/	.	16cc\	.	.	.	.	.	.	.	.	.
.	.	32e/JJJ	.	.	.	.	.	.	.	.	.	.	.
*	*	*Xrep	*	*	*	*	*	*	*	*	*	*	*
*	*	*rep	*	*	*	*	*	*	*	*	*	*	*
8C/	.	32c/LLL	.	16g\	.	.	.	.	.	.	.	.	.
.	.	32e/	.	.	.	.	.	.	.	.	.	.	.
.	.	32g/	.	16e\JJ	.	.	.	.	.	.	.	.	.
.	.	32e/JJJ	.	.	.	.	.	.	.	.	.	.	.
*	*	*Xrep	*	*	*	*	*	*	*	*	*	*	*
*	*	*rep	*	*	*	*	*	*	*	*	*	*	*
8C/	.	32c/LLL	.	32c/LLL	.	8c\	-do	.	.	.	.	.	.
.	.	32e/	.	32e/	.	.	.	.	.	.	.	.	.
.	.	32g/	.	32g/	.	.	.	.	.	.	.	.	.
.	.	32e/JJJ	.	32cc/JJJ	.	.	.	.	.	.	.	.	.
*	*	*Xrep	*	*	*	*	*	*	*	*	*	*	*
*	*	*rep	*	*	*	*	*	*	*	*	*	*	*
8C/J	.	32c/LLL	.	32ee\LLL	.	8r	.	.	.	.	.	.	.
.	.	32e/	.	32gg\	.	.	.	.	.	.	.	.	.
.	.	32g/	.	32ee\	.	.	.	.	.	.	.	.	.
.	.	32e/JJJ	.	32cc\JJJ	.	.	.	.	.	.	.	.	.
*	*	*Xrep	*	*	*	*	*	*	*	*	*	*	*
=35	=35	=35	=35	=35	=35	=35	=35	=35-	=35	=35	=35	=35-	=35-
8C/L	6 4	32c/LLL	.	16aa\LL	.	16c\LL	et	0r	.	2ryy	2ryy	.	.
.	.	32f/	.	.	.	.	.	.	.	.	.	.	.
.	.	32a/	.	16ff\	.	16A\JJ	.	.	.	.	.	.	.
.	.	32f/JJJ	.	.	.	.	.	.	.	.	.	.	.
*	*	*rep	*	*	*	*	*	*	*	*	*	*	*
8C/	.	32c/LLL	.	16ff\	.	16A\LL	spes	.	.	.	.	.	.
.	.	32f/	.	.	.	.	.	.	.	.	.	.	.
.	.	32a/	.	16cc\JJ	.	16F\JJ	.	.	.	.	.	.	.
.	.	32f/JJJ	.	.	.	.	.	.	.	.	.	.	.
*	*	*Xrep	*	*	*	*	*	*	*	*	*	*	*
*	*	*rep	*	*	*	*	*	*	*	*	*	*	*
8C/	.	32c/LLL	.	16a\LL	.	8.F\	no-	.	.	.	.	.	.
.	.	32f/	.	.	.	.	.	.	.	.	.	.	.
.	.	32a/	.	16cc\	.	.	.	.	.	.	.	.	.
.	.	32f/JJJ	.	.	.	.	.	.	.	.	.	.	.
*	*	*Xrep	*	*	*	*	*	*	*	*	*	*	*
*	*	*rep	*	*	*	*	*	*	*	*	*	*	*
8C/J	.	32c/LLL	.	16ff\	.	.	.	.	.	.	.	.	.
.	.	32f/	.	.	.	.	.	.	.	.	.	.	.
.	.	32a/	.	16aa\JJ	.	16A\	-stra	.	.	.	.	.	.
.	.	32f/JJJ	.	.	.	.	.	.	.	.	.	.	.
*	*	*Xrep	*	*	*	*	*	*	*	*	*	*	*
=36	=36	=36	=36	=36	=36	=36	=36	=36-	=36	=36	=36	=36-	=36-
8C/L	5 3	32c/LLL	.	32gg\LLL	.	16.G\LL	Sal-	.	.	2ryy	2ryy	.	.
.	.	32e/	.	32cc\	.	.	.	.	.	.	.	.	.
.	.	32g/	.	32dd\	.	.	.	.	.	.	.	.	.
.	.	32e/JJJ	.	32ee\JJJ	.	32E\JJk	.	.	.	.	.	.	.
*	*	*rep	*	*	*	*	*	*	*	*	*	*	*
8C/	.	32c/LLL	.	32ff\LLL	.	8C/	-ve	.	.	.	.	.	.
.	.	32e/	.	32gg\	.	.	.	.	.	.	.	.	.
.	.	32g/	.	32aa\	.	.	.	.	.	.	.	.	.
!	!	!	!	!LO:SIC:v:s=32bbn\JJJ	!	!	!	!	!	!	!	!	!
.	.	32e/JJJ	.	32bb-\JJJ	.	.	.	.	.	.	.	.	.
*	*	*Xrep	*	*	*	*	*	*	*	*	*	*	*
*	*	*rep	*	*	*	*	*	*	*	*	*	*	*
!	!	!	!	!LO:LB:g=original	!	!	!	!	!	!	!	!	!
8C/	.	32c/LLL	.	32ccc\LLL	.	4r	.	.	.	.	.	.	.
!	!	!	!	!LO:SIC:v:s=32bbn\	!	!	!	!	!	!	!	!	!
.	.	32e/	.	32bb-\	.	.	.	.	.	.	.	.	.
.	.	32g/	.	32aa\	.	.	.	.	.	.	.	.	.
.	.	32e/JJJ	.	32gg\JJJ	.	.	.	.	.	.	.	.	.
*	*	*Xrep	*	*	*	*	*	*	*	*	*	*	*
*	*	*rep	*	*	*	*	*	*	*	*	*	*	*
8C/J	.	32c/LLL	.	32ff\LLL	.	.	.	.	.	.	.	.	.
.	.	32e/	.	32ee\	.	.	.	.	.	.	.	.	.
.	.	32g/	.	32dd\	.	.	.	.	.	.	.	.	.
.	.	32e/JJJ	.	32cc\JJJ	.	.	.	.	.	.	.	.	.
*	*	*Xrep	*	*	*	*	*	*	*	*	*	*	*
!LO:LB:g=original	!	!	!	!	!	!LO:LB:g=original	!	!	!	!	!	!	!
=37	=37	=37	=37	=37	=37	=37	=37	=37-	=37	=37	=37	=37-	=37-
8C/L	6 4	32c/LLL	.	16aa\LL	.	16c\LL	et	.	.	2ryy	2ryy	1r	1r
.	.	32f/	.	.	.	.	.	.	.	.	.	.	.
.	.	32a/	.	16ff\	.	16A\JJ	.	.	.	.	.	.	.
.	.	32f/JJJ	.	.	.	.	.	.	.	.	.	.	.
*	*	*rep	*	*	*	*	*	*	*	*	*	*	*
8C/	.	32c/LLL	.	16ff\	.	16A\LL	spes	.	.	.	.	.	.
.	.	32f/	.	.	.	.	.	.	.	.	.	.	.
.	.	32a/	.	16cc\JJ	.	16F\JJ	.	.	.	.	.	.	.
.	.	32f/JJJ	.	.	.	.	.	.	.	.	.	.	.
*	*	*Xrep	*	*	*	*	*	*	*	*	*	*	*
*	*	*rep	*	*	*	*	*	*	*	*	*	*	*
8C/	.	32c/LLL	.	16a\LL	.	8.F\	no-	.	.	.	.	.	.
.	.	32f/	.	.	.	.	.	.	.	.	.	.	.
.	.	32a/	.	16cc\	.	.	.	.	.	.	.	.	.
.	.	32f/JJJ	.	.	.	.	.	.	.	.	.	.	.
*	*	*Xrep	*	*	*	*	*	*	*	*	*	*	*
*	*	*rep	*	*	*	*	*	*	*	*	*	*	*
8C/J	.	32c/LLL	.	16ff\	.	.	.	.	.	.	.	.	.
.	.	32f/	.	.	.	.	.	.	.	.	.	.	.
.	.	32a/	.	16aa\JJ	.	16A\	-stra	.	.	.	.	.	.
.	.	32f/JJJ	.	.	.	.	.	.	.	.	.	.	.
*Xtremolo	*	*Xrep	*	*	*	*	*	*	*	*	*	*	*
=38	=38	=38	=38	=38	=38	=38	=38	=38-	=38	=38	=38	=38-	=38-
8C/L	.	32c/LLL	.	32gg\LLL	.	16.G\LL	Sal-	.	.	2ryy	2ryy	.	.
.	.	32e/	.	32cc\	.	.	.	.	.	.	.	.	.
.	.	32g/	.	32dd\	.	.	.	.	.	.	.	.	.
.	.	32e/JJJ	.	32ee\JJJ	.	32E\JJk	.	.	.	.	.	.	.
*	*	*rep	*	*	*	*	*	*	*	*	*	*	*
8C/	.	32c/LLL	.	32ff\LLL	.	8C/	-ve	.	.	.	.	.	.
.	.	32e/	.	32gg\	.	.	.	.	.	.	.	.	.
.	.	32g/	.	32aa\	.	.	.	.	.	.	.	.	.
!	!	!	!	!LO:SIC:v:s=32bbn\JJJ	!	!	!	!	!	!	!	!	!
.	.	32e/JJJ	.	32bb-\JJJ	.	.	.	.	.	.	.	.	.
*	*	*Xrep	*	*	*	*	*	*	*	*	*	*	*
*	*	*rep	*	*	*	*	*	*	*	*	*	*	*
8E/	.	32c/LLL	.	32ccc\LLL	.	4r	.	.	.	.	.	.	.
!	!	!	!	!LO:SIC:v:s=32bbn\	!	!	!	!	!	!	!	!	!
.	.	32e/	.	32bb-\	.	.	.	.	.	.	.	.	.
.	.	32g/	.	32aa\	.	.	.	.	.	.	.	.	.
.	.	32e/JJJ	.	32gg\JJJ	.	.	.	.	.	.	.	.	.
*	*	*Xrep	*	*	*	*	*	*	*	*	*	*	*
*	*	*rep	*	*	*	*	*	*	*	*	*	*	*
8E/J	.	32c/LLL	.	32ff\LLL	.	.	.	.	.	.	.	.	.
.	.	32e/	.	32ee\	.	.	.	.	.	.	.	.	.
.	.	32g/	.	32dd\	.	.	.	.	.	.	.	.	.
.	.	32e/JJJ	.	32cc\JJJ	.	.	.	.	.	.	.	.	.
*	*	*Xrep	*	*	*	*	*	*	*	*	*	*	*
!	!	!LO:PB:g=original	!	!	!	!	!	!	!	!	!	!	!
=39	=39	=39	=39	=39	=39	=39	=39	=39	=39	=39	=39	=39	=39
8.F\L	.	8.a/L	.	8.dd\L	.	8.F\	et	8.dd\	et	2ryy	2ryy	8.dd\L	8.aa\L
16F\Jk	.	16a/Jk	.	16dd\Jk	.	16F\	spes	16dd\	spes	.	.	16dd\Jk	16aa\Jk
!	!	!	!	!	!	!	!	!	!	!	!	!LO:TX:t=P:problem=mixed beam	!
8.F#X\L	.	8.a/L	.	8.dd\L	.	8.F#X\	no-	8.dd\	no-	.	.	8.dd\L	8.aa\L
16F#\Jk	.	16a/Jk	.	16cc\Jk	.	16F#\	-stra	16cc\	-stra	.	.	16e/Jk	16cc\Jk
=40	=40	=40	=40	=40	=40	=40	=40	=40	=40	=40	=40	=40	=40
!!mixed beam:problem
!LO:TX:t=P:problem=mixed beam	!	!	!	!	!LO:DY:b:t=for.	!	!	!	!	!	!	!	!
8G\L	.	8g/L	.	8e/L 8cc/	f	8G\	sal-	8cc\	Sal-	2ryy	2ryy	8e/L	8cc\L
!	!	!LO:SIC:v:n=1:s=8bn	!	!LO:SIC:v:n=1:s=8bn	!	!	!	!	!	!	!	!	!LO:SIC:v:s=8bn\J
8GG/	.	8d/ 8b-/	.	8d/ 8b-/	.	8GG/	-ve	8b-\	-ve	.	.	8d/J	8b-\J
!	!	!LO:SIC:v:n=1:s=8bn	!	!LO:SIC:v:n=1:s=8bn	!	!	!	!	!	!	!	!	!
8GG/J	.	8d/J 8b-/	.	8d/J 8b-/	.	4r	.	8r	.	.	.	4r	4r
8r	.	8r	.	8r	.	.	.	16r	.	.	.	.	.
.	.	.	.	.	.	.	.	16gg\	ad	.	.	.	.
=41	=41	=41	=41	=41	=41	=41	=41	=41	=41	=41	=41	=41	=41
*	*	*	*	*	*	*	*	*	*	*	*	*2\right	*2\right
4C/	.	16r	.	16r	.	4r	.	8.gg\	te	2ryy	2ryy	2cc\	2ee\
!	!	!	!	!	!LO:DY:b:t=p.	!	!	!	!	!	!	!	!
.	.	16e/LL	.	16cc/LL	p	.	.	.	.	.	.	.	.
.	.	16e/	.	(<16g/	.	.	.	.	.	.	.	.	.
.	.	16c/JJ	.	16e/JJ)	.	.	.	16ee\	ad	.	.	.	.
4c\	.	16r	.	16r	.	8r	.	8.cc\	te	.	.	.	.
.	.	16c/LL	.	16e/LL	.	.	.	.	.	.	.	.	.
.	.	16d/	.	(<16f/	.	16r	.	.	.	.	.	.	.
.	.	16e/JJ	.	16g/JJ)	.	16c\	ad	16ee\	cla-	.	.	.	.
=42	=42	=42	=42	=42	=42	=42	=42	=42	=42	=42	=42	=42	=42
4Bn\	.	16r	.	16r	.	8.d\	te	8ff\	-ma-	2ryy	2ryy	2dd\	2ff\
.	.	16d/LL	.	16f/LL	.	.	.	.	.	.	.	.	.
!	!	!LO:SIC:v:s=16Bn/	!	!	!	!	!	!	!	!	!	!	!
.	.	16B-/	.	16d/	.	.	.	8dd\	-mus	.	.	.	.
!	!	!	!	!LO:SIC:v:s=16Bn/JJ	!	!	!	!	!	!	!	!	!
.	.	16G/JJ	.	16B-/JJ	.	16Bn\	ad	.	.	.	.	.	.
4G\	.	16r	.	16r	.	8.G\	te	8r	.	.	.	.	.
!	!	!LO:SIC:v:s=16Bn/LL	!	!	!	!	!	!	!	!	!	!	!
.	.	16B-/LL	.	16d/LL	.	.	.	.	.	.	.	.	.
.	.	16c/	.	16e/	.	.	.	16r	.	.	.	.	.
.	.	16d/JJ	.	16f/JJ	.	16B\	cla-	16gg\	e-	.	.	.	.
=43	=43	=43	=43	=43	=43	=43	=43	=43	=43	=43	=43	=43	=43
4C/	.	16r	.	16r	.	8c\	-ma-	8.gg\	-xu-	2ryy	2ryy	2cc\	2ee\
!	!	!	!	!	!LO:DY:b:t=p.	!	!	!	!	!	!	!	!
.	.	16e/LL	.	16cc/LL	p	.	.	.	.	.	.	.	.
.	.	16e/	.	(<16g/	.	8C/	-mus	.	.	.	.	.	.
.	.	16c/JJ	.	16e/JJ)	.	.	.	16ee\	-les	.	.	.	.
!	!	!	!	!LO:LB:g=original	!	!	!	!LO:LB:g=original	!	!	!	!	!
4c\	.	16r	.	16r	.	8r	.	8.cc\	ti-	.	.	.	.
.	.	16c/LL	.	16e/LL	.	.	.	.	.	.	.	.	.
.	.	16d/	.	(<16f/	.	16r	.	.	.	.	.	.	.
.	.	16e/JJ	.	16g/JJ)	.	16c\	e-	16ee\	-li	.	.	.	.
!	!	!	!	!	!	!LO:LB:g=original	!	!	!	!	!	!	!
=44	=44	=44	=44	=44	=44	=44	=44	=44	=44	=44	=44	=44	=44
4Bn\	.	16r	.	16r	.	8.d\	-xu-	8ff\	e-	2ryy	2ryy	2dd\	2ff\
.	.	16d/LL	.	16f/LL	.	.	.	.	.	.	.	.	.
!	!	!LO:SIC:v:s=16Bn/	!	!	!	!	!	!	!	!	!	!	!
.	.	16B-/	.	(<16d/	.	.	.	8dd\	-ve	.	.	.	.
!	!	!	!	!LO:SIC:v:s=16Bn/JJ)	!	!LO:SIC:v:s=16Bn\	!	!	!	!	!	!	!
.	.	16G/JJ	.	16B-/JJ)	.	16B-\	-les	.	.	.	.	.	.
4G\	.	16r	.	16r	.	8.G\	fi-	4r	.	.	.	.	.
!	!	!LO:SIC:v:s=16Bn/LL	!	!	!	!	!	!	!	!	!	!	!
.	.	16B-/LL	.	16d/LL	.	.	.	.	.	.	.	.	.
.	.	16c/	.	(<16e/	.	.	.	.	.	.	.	.	.
!	!	!	!	!	!	!LO:SIC:v:s=16Bn\	!	!	!	!	!	!	!
.	.	16d/JJ	.	16f/JJ)	.	16B-\	-li	.	.	.	.	.	.
=45	=45	=45	=45	=45	=45	=45	=45	=45	=45	=45	=45	=45	=45
!!mixed beam:problem
!LO:TX:t=P:problem=mixed beam	!	!	!	!	!	!	!	!	!	!	!	!	!
8c\L	.	4c/	.	8e/L	.	8c\	e-	4r	.	2ryy	2ryy	8cc\	8ee\
8C/J	.	.	.	8e/J 8cc/	.	8C/	-ve	.	.	.	.	8r	8r
4r	.	4r	.	8cc\L	.	4r	.	8cc\	ad	.	.	4r	4r
.	.	.	.	8dd\J	.	.	.	8dd\	te	.	.	.	.
!	!	!	!	!	!	!	!	!	!	!	!	!	!LO:LB:g=original
=46	=46	=46	=46	=46	=46	=46	=46	=46	=46	=46	=46	=46	=46
8.A\L	5 3	8.cc\L	.	8.ee\L	.	8.A\	ad	8.ee\	ad	2ryy	2ryy	8.cc\L	8.ee\L
16A\Jk	.	16cc\Jk	.	16ee\Jk	.	16A\	te	16ee\	te	.	.	16cc\Jk	16ee\Jk
!	!	!	!	!	!	!	!	!	!	!	!	!LO:LB:g=original	!
!	!	!LO:SIC:v:s=8.bn\L	!	!	!	!	!	!	!	!	!	!LO:SIC:v:s=8.bn\L	!
8.G#X\L	5 3	8.b-\L	.	8.dd\L	.	8.G#X\	su-	8.dd\	su-	.	.	8.b-\L	8.dd\L
!	!	!LO:SIC:v:s=16bn\Jk	!	!	!	!	!	!	!	!	!	!LO:SIC:v:s=16bn\Jk	!
16G#\Jk	.	16b-\Jk	.	16dd\Jk	.	16G#\	-spi-	16dd\	-spi-	.	.	16b-\Jk	16dd\Jk
!	!	!LO:LB:g=original	!	!	!	!	!	!	!	!	!	!	!
=47	=47	=47	=47	=47	=47	=47	=47	=47	=47	=47	=47	=47	=47
!!mixed beam:problem
!LO:TX:t=P:problem=mixed beam	!	!	!	!	!	!	!	!	!	!	!	!	!
8A\L	.	8a\L	.	8cc\L	.	8A\	-ra-	8cc\	-ra-	2ryy	2ryy	8a\L	8cc\L
8AA/J	.	8a\	.	8cc\	.	8A\	-mus	8cc\	-mus	.	.	8a\	8cc\J
!	!	!LO:SIC:v:s=8bn\	!	!	!	!LO:SIC:v:s=8Bn\	!	!	!	!	!	!LO:SIC:v:s=8bn\L	!
4r	.	8b-\	.	8dd\	.	8B-\	ad	8dd\	ad	.	.	8b-\	8dd\L
.	.	8cc\J	.	8ee\J	.	8c\	te	8ee\	te	.	.	8cc\J	8ee\J
=48	=48	=48	=48	=48	=48	=48	=48	=48	=48	=48	=48	=48	=48
8.G\L	7 6	8.dd\L	.	8.ff\L	.	8.d\	ad	8.ff\	ad	2ryy	2ryy	8.dd\L	8.ff\L
!LO:SIC:v:s=16Bn\Jk	!	!	!	!	!	!	!	!	!	!	!	!	!
16B-\Jk	.	16dd\Jk	.	16ff\K	.	16d\	te	16ff\	te	.	.	16dd\Jk	16ff\Jk
8.c\L	.	8.cc\L	.	8.ee\	.	8.c\	su-	8.ee\	su-	.	.	8.cc\L	8.ee\L
16F#X\Jk	.	16cc\Jk	.	16ee\Jk	.	16c\	-spi-	16ee\	-spi-	.	.	16cc\Jk	16ee\Jk
!LO:LB:g=original	!	!	!	!	!	!	!	!LO:LB:g=original	!	!	!	!	!
=49	=49	=49	=49	=49	=49	=49	=49	=49	=49	=49	=49	=49	=49
*tremolo	*	*	*	*	*	*	*	*	*	*	*	*	*
16G\LL	-6 4	8cc\L	.	8ee\L	.	8c\	-ra-	8ee\	-ra-	2ryy	2ryy	8cc\L	8ee\L
16G\	.	.	.	.	.	.	.	.	.	.	.	.	.
!	!	!LO:SIC:v:s=8bn\J	!	!	!	!LO:SIC:v:s=8Bn\	!	!	!	!	!	!LO:SIC:v:s=8bn\J	!
16G\	.	8b-\J	.	16dd\L	.	8B-\	-mus	8dd\	-mus	.	.	8b-\J	8dd\J
16G\	.	.	.	16ff#X\JJ	.	.	.	.	.	.	.	.	.
16G\	.	16r	.	16gg\LL	.	8r	.	8r	.	.	.	8r	8r
!	!	!LO:SIC:v:s=16bn\JJ	!	!	!	!	!	!	!	!	!	!	!
16G\	.	16b-\LL	.	16dd\	.	.	.	.	.	.	.	.	.
16G\	.	16cc\	.	16ee-X\	.	8c\	ge-	8ee-X\	ge-	.	.	8cc\	8ee-X\
16G\JJ	.	16f#X\JJ	.	16cc\JJ	.	.	.	.	.	.	.	.	.
=50	=50	=50	=50	=50	=50	=50	=50	=50	=50	=50	=50	=50	=50
!	!	!LO:SIC:v:s=8f#\L	!	!	!	!	!	!LO:SIC:v:s=8ee-\	!	!	!	!	!LO:SIC:v:s=8ee-\L
16G\LL	-6 4	8f\L	.	8cc\L	.	8c\	-men-	8ee\	-men-	2ryy	2ryy	8cc\L	8ee\L
16G\	.	.	.	.	.	.	.	.	.	.	.	.	.
!	!	!	!	!LO:SIC:v:s=16bn\	!	!LO:SIC:v:s=8Bn\	!	!	!	!	!	!LO:SIC:v:s=8bn\J	!
16G\	5 3	8g\J	.	16b-\L	.	8B-\	-tes	8dd\	-tes	.	.	8b-\J	8dd\J
16G\	.	.	.	16ff#X\JJ	.	.	.	.	.	.	.	.	.
!	!	!	!	!	!	!LO:LB:g=original	!	!	!	!	!	!	!
16G\	6 4	16r	.	16gg\LL	.	8r	.	8r	.	.	.	8r	8r
16G\	.	16cc\LL	.	16dd\	.	.	.	.	.	.	.	.	.
16G\	.	16dd\	.	16ee-X\	.	8c\	et	8ee-X\	et	.	.	8cc\	8ee-X\
16G\JJ	.	16f#X\JJ	.	16cc\JJ	.	.	.	.	.	.	.	.	.
=51	=51	=51	=51	=51	=51	=51	=51	=51	=51	=51	=51	=51	=51
!	!	!LO:SIC:v:s=8f#\L	!	!	!	!	!	!LO:SIC:v:s=8ee-\	!	!	!	!	!LO:SIC:v:s=8ee-\L
16G\LL	-6 4	8f\L	.	8cc\L	.	8c\	flen-	8ee\	flen-	2ryy	2ryy	8cc\L	8ee\L
16G\	.	.	.	.	.	.	.	.	.	.	.	.	.
!	!	!	!	!LO:SIC:v:s=16bn\	!	!LO:SIC:v:s=8Bn\	!	!	!	!	!	!LO:SIC:v:s=8bn\J	!
16G\	.	8g\J	.	16b-\L	.	8B-\	-tes	8dd\	-tes	.	.	8b-\J	8dd\J
16G\	.	.	.	16ff#X\JJ	.	.	.	.	.	.	.	.	.
16G\	5 3	4r	.	16gg\LL	.	8r	.	8r	.	.	.	8r	8r
16G\	.	.	.	16dd\	.	.	.	.	.	.	.	.	.
!	!	!	!	!LO:SIC:v:s=16bn\	!	!LO:SIC:v:s=8Bn\	!	!	!	!	!	!LO:SIC:v:s=8bn\	!
16G\	.	.	.	16b-\	.	8B-\	in	8dd\	in	.	.	8b-\	8dd\
16G\JJ	.	.	.	16g\JJ	.	.	.	.	.	.	.	.	.
*Xtremolo	*	*	*	*	*	*	*	*	*	*	*	*	*
=52	=52	=52	=52	=52	=52	=52	=52	=52	=52	=52	=52	=52	=52
*	*	*tremolo	*	*	*	*	*	*	*	*	*	*	*
!!mixed beam:problem
!	!	!	!	!LO:TX:t=P:problem=mixed beam	!	!	!	!	!	!	!	!	!
4c\	.	16c/LL	.	32cc\LLL	.	4c\	hac	4ee-X\	hac	2ryy	2ryy	4cc\	4ee-X\
.	.	.	.	32e-X/	.	.	.	.	.	.	.	.	.
.	.	16c/	.	32e-/	.	.	.	.	.	.	.	.	.
.	.	.	.	32e-/JJJ	.	.	.	.	.	.	.	.	.
*	*	*	*	*tremolo	*	*	*	*	*	*	*	*	*
!	!	!	!	!LO:N:vis=4	!	!	!	!	!	!	!	!	!
.	.	16c/	.	32e-/LLL	.	.	.	.	.	.	.	.	.
.	.	.	.	32e-/	.	.	.	.	.	.	.	.	.
.	.	16c/	.	32e-/	.	.	.	.	.	.	.	.	.
.	.	.	.	32e-/JJJ	.	.	.	.	.	.	.	.	.
8c\L	.	16c/	.	32e-/LLL	.	8c\	la-	8ee-\	la-	.	.	8cc\L	8ee-\L
.	.	.	.	32e-/	.	.	.	.	.	.	.	.	.
.	.	16c/	.	32e-/	.	.	.	.	.	.	.	.	.
.	.	.	.	32e-/	.	.	.	.	.	.	.	.	.
8c\J	.	16c/	.	32e-/	.	8c\	-chry-	8ee-\	-cri-	.	.	8cc\J	8ee-\J
.	.	.	.	32e-/	.	.	.	.	.	.	.	.	.
.	.	16c/JJ	.	32e-/	.	.	.	.	.	.	.	.	.
.	.	.	.	32e-/JJJ	.	.	.	.	.	.	.	.	.
*	*	*	*	*Xtremolo	*	*	*	*	*	*	*	*	*
!	!	!	!	!LO:LB:g=original	!	!	!	!	!	!	!	!	!
=53	=53	=53	=53	=53	=53	=53	=53	=53	=53	=53	=53	=53	=53
!!mixed beam:problem
!	!	!	!	!LO:TX:t=P:problem=mixed beam	!	!	!	!LO:SIC:v:s=4.ee-\	!	!	!	!	!LO:SIC:v:s=4.ee-\
4A-X\	.	16c/LL	.	32cc\LLL	.	4.A-X\	-ma-	4.ee\	-ma-	2ryy	2ryy	4.cc\	4.ee\
!	!	!	!	!LO:SIC:v:s=32e-/	!	!	!	!	!	!	!	!	!
.	.	.	.	32e/	.	.	.	.	.	.	.	.	.
!	!	!	!	!LO:SIC:v:s=32e-/	!	!	!	!	!	!	!	!	!
.	.	16c/	.	32e/	.	.	.	.	.	.	.	.	.
!	!	!	!	!LO:SIC:v:s=32e-/JJJ	!	!	!	!	!	!	!	!	!
.	.	.	.	32e/JJJ	.	.	.	.	.	.	.	.	.
!	!	!	!	!LO:SIC:v:s=32e-/LLL	!	!	!	!	!	!	!	!	!
.	.	16c/	.	32e/LLL	.	.	.	.	.	.	.	.	.
!	!	!	!	!LO:SIC:v:s=32e-/	!	!	!	!	!	!	!	!	!
.	.	.	.	32e/	.	.	.	.	.	.	.	.	.
!	!	!	!	!LO:SIC:v:s=32e-/	!	!	!	!	!	!	!	!	!
.	.	16c/JJ	.	32e/	.	.	.	.	.	.	.	.	.
!	!	!	!	!LO:SIC:v:s=32e-/JJJ	!	!	!	!	!	!	!	!	!
.	.	.	.	32e/JJJ	.	.	.	.	.	.	.	.	.
!!mixed beam:problem
!	!	!	!	!LO:TX:t=P:problem=mixed beam	!	!	!	!	!	!	!	!	!
8A-\L	.	16c/LL 16e-X/	.	32cc\LLL	.	.	.	.	.	.	.	.	.
.	.	.	.	32f#X/	.	.	.	.	.	.	.	.	.
.	.	16c/ 16e-/	.	32f#/	.	.	.	.	.	.	.	.	.
.	.	.	.	32f#/JJJ	.	.	.	.	.	.	.	.	.
!	!	!	!	!	!	!	!	!LO:SIC:v:s=8ee-\	!	!	!	!	!LO:SIC:v:s=8ee-\
8F#X\J	.	16c/ 16e-/	.	32f#/LLL	.	8A-\	-rum	8ee\	-rum	.	.	8cc\	8ee\
.	.	.	.	32f#/	.	.	.	.	.	.	.	.	.
.	.	16c/JJ 16e-/	.	32f#/	.	.	.	.	.	.	.	.	.
.	.	.	.	32f#/JJJ	.	.	.	.	.	.	.	.	.
*	*	*Xtremolo	*	*	*	*	*	*	*	*	*	*	*
=54	=54	=54	=54	=54	=54	=54	=54	=54	=54	=54	=54	=54	=54
!!mixed beam:problem
!LO:TX:t=P:problem=mixed beam	!	!LO:SIC:v:n=2:s=8Bn/L	!	!	!	!LO:SIC:v:s=8A-\	!	!LO:SIC:v:s=8ee-\	!	!	!	!	!
8G\L	.	8B-/L 8d/	.	8g/L	.	8A\	va-	8ee\	val-	2ryy	2ryy	8cc\L	8ee-X\L
!	!	!LO:SIC:v:n=2:s=8Bn/J	!	!	!	!	!	!	!	!	!	!LO:SIC:v:s=8bn\J	!
8GG/J	.	8B-/J 8d/	.	8G/J	.	8G\	-le	8dd\	-le	.	.	8b-\J	8dd\J
!	!	!	!	!	!	!	!	!	!	!	!	!LO:SIC:v:s=16bn\JJ	!
4r	.	4r	.	4r	.	4r	.	4r	.	.	.	16b-\LL	16dd\LL
.	.	.	.	.	.	.	.	.	.	.	.	16cc\	16ee-X\
!	!	!	!	!	!	!	!	!	!	!	!	!LO:SIC:v:s=16bn\	!
.	.	.	.	.	.	.	.	.	.	.	.	16b-\	16dd\
.	.	.	.	.	.	.	.	.	.	.	.	16cc\JJ	16ee-\JJ
=55	=55	=55	=55	=55	=55	=55	=55	=55	=55	=55	=55	=55	=55
!!mixed beam:problem
!LO:TX:t=P:problem=mixed beam	!	!LO:SIC:v:s=16Bn/LL	!	!	!	!	!	!	!	!	!	!LO:SIC:v:s=8bn\L	!
8G\L	.	16B-/LL	.	16d/LL	.	1r	.	0r	.	2ryy	2ryy	8b-\L	8dd\L
.	.	16c/	.	16e-X/	.	.	.	.	.	.	.	.	.
!	!	!LO:SIC:v:s=16Bn/	!	!	!	!	!	!	!	!	!	!LO:SIC:v:s=8.bn\J	!
8GG/J	.	16B-/	.	16d/	.	.	.	.	.	.	.	8.b-\J	8.gg\J
.	.	16c/JJ	.	16e-/JJ	.	.	.	.	.	.	.	.	.
!	!	!LO:SIC:v:s=8Bn/	!	!	!	!	!	!	!	!	!	!	!
4r	.	8B-/	.	8d/	.	.	.	.	.	.	.	.	.
!	!	!	!	!	!	!	!	!	!	!	!	!	!LO:N:vis=8
.	.	.	.	.	.	.	.	.	.	.	.	16cc\LL	16ee-X\LL
!	!	!	!	!	!	!	!	!	!	!	!	!LO:SIC:v:s=16bn\	!LO:N:vis=8
.	.	8r	.	8r	.	.	.	.	.	.	.	16b-\	16dd\
!	!	!	!	!	!	!	!	!	!	!	!	!	!LO:N:vis=8
.	.	.	.	.	.	.	.	.	.	.	.	16cc\JJ	16ee-\JJ
!	!	!	!	!	!	!	!	!	!	!	!	!	!LO:LB:g=original
=56	=56	=56	=56	=56	=56	=56-	=56	=56-	=56	=56	=56	=56	=56
!!mixed beam:problem
!LO:TX:t=P:problem=mixed beam	!	!LO:SIC:v:s=16Bn/LL	!	!	!	!	!	!	!	!	!	!LO:SIC:v:s=8bn\L	!
8G\L	.	16B-/LL	.	16d/LL	.	.	.	.	.	2ryy	2ryy	8b-\L	8dd\L
!	!	!	!	!LO:SIC:v:s=16e-/	!	!	!	!	!	!	!	!	!
.	.	16c/	.	16e/	.	.	.	.	.	.	.	.	.
!	!	!LO:SIC:v:s=16Bn/	!	!	!	!	!	!	!	!	!	!LO:SIC:v:s=8.bn\J	!
8GG/J	.	16B-/	.	16d/	.	.	.	.	.	.	.	8.b-\J	8.gg\J
!	!	!	!	!LO:SIC:v:s=16e-/JJ	!	!	!	!	!	!	!	!	!
.	.	16c/JJ	.	16e/JJ	.	.	.	.	.	.	.	.	.
!	!	!LO:SIC:v:s=8Bn/	!	!	!	!	!	!	!	!	!	!	!
4r	.	8B-/	.	8d/	.	.	.	.	.	.	.	.	.
!	!	!	!	!	!	!	!	!	!	!	!	!	!LO:N:vis=8
.	.	.	.	.	.	.	.	.	.	.	.	16cc\LL	16ee-X\LL
!	!	!	!	!	!	!	!	!	!	!	!	!LO:SIC:v:s=16bn\	!LO:N:vis=8
.	.	8r	.	8r	.	.	.	.	.	.	.	16b-\	16dd\
!	!	!	!	!	!	!	!	!	!	!	!	!	!LO:N:vis=8
.	.	.	.	.	.	.	.	.	.	.	.	16cc\JJ	16ee-\JJ
!	!	!LO:LB:g=original	!	!	!	!	!	!	!	!	!	!LO:LB:g=original	!
=57	=57	=57	=57	=57	=57	=57-	=57	=57-	=57	=57	=57	=57	=57
!!mixed beam:problem
!LO:TX:t=P:problem=mixed beam	!	!LO:SIC:v:n=2:s=8Bn/L	!	!	!	!	!	!	!	!	!	!LO:SIC:v:s=8bn\J	!
8G\L	.	8B-/L 8d/	.	8d/L	.	2r	.	.	.	2ryy	2ryy	8b-\L	8dd\L
!	!	!LO:SIC:v:n=2:s=8Bn/	!	!LO:SIC:v:n=2:s=8Bn/	!	!	!	!	!	!	!	!LO:SIC:v:s=8bn\	!
8GG/J	.	8B-/ 8d/	.	8B-/ 8g/	.	.	.	.	.	.	.	8b-\	8dd\
!	!	!LO:SIC:v:n=2:s=8Bn/J	!	!LO:SIC:v:n=2:s=8Bn/J	!	!	!	!	!	!	!	!LO:SIC:v:s=8bn\L	!
16G\LL	.	8B-/J 8d/	.	8B-/J 8g/	.	.	.	.	.	.	.	8b-\J	8dd\J
16Fn\	.	.	.	.	.	.	.	.	.	.	.	.	.
16E-X\	.	8r	.	8r	.	.	.	.	.	.	.	8r	8r
16D\JJ	.	.	.	.	.	.	.	.	.	.	.	.	.
=58	=58	=58	=58	=58	=58	=58	=58	=58-	=58	=58	=58	=58	=58
*tremolo	*	*tremolo	*	*tremolo	*	*	*	*	*	*	*	*	*
!	!	!	!LO:DY:b:rj:t=p.	!	!LO:DY:b:rj:t=p.	!	!	!	!	!	!	!	!
8C/L	.	16G/LL 16e/	p	32e/LLL 32g/ 32cc/	p	4.c\	E-	.	.	2ryy	2ryy	0r	0r
.	.	.	.	32e/ 32g/ 32cc/	.	.	.	.	.	.	.	.	.
.	.	16G/ 16e/	.	32e/ 32g/ 32cc/	.	.	.	.	.	.	.	.	.
.	.	.	.	32e/ 32g/ 32cc/	.	.	.	.	.	.	.	.	.
8C/	.	16G/ 16e/	.	32e/ 32g/ 32cc/	.	.	.	.	.	.	.	.	.
.	.	.	.	32e/ 32g/ 32cc/	.	.	.	.	.	.	.	.	.
.	.	16G/ 16e/	.	32e/ 32g/ 32cc/	.	.	.	.	.	.	.	.	.
.	.	.	.	32e/ 32g/ 32cc/	.	.	.	.	.	.	.	.	.
8C/	.	16G/ 16e/	.	32e/ 32g/ 32cc/	.	.	.	.	.	.	.	.	.
.	.	.	.	32e/ 32g/ 32cc/	.	.	.	.	.	.	.	.	.
.	.	16G/ 16e/	.	32e/ 32g/ 32cc/	.	.	.	.	.	.	.	.	.
.	.	.	.	32e/ 32g/ 32cc/	.	.	.	.	.	.	.	.	.
8C/J	.	16G/ 16e/	.	32e/ 32g/ 32cc/	.	8c\	-ia	.	.	.	.	.	.
.	.	.	.	32e/ 32g/ 32cc/	.	.	.	.	.	.	.	.	.
.	.	16G/JJ 16e/	.	32e/ 32g/ 32cc/	.	.	.	.	.	.	.	.	.
.	.	.	.	32e/JJJ 32g/ 32cc/	.	.	.	.	.	.	.	.	.
!	!	!	!	!	!	!	!	!LO:LB:g=original	!	!	!	!	!
=59	=59	=59	=59	=59	=59	=59	=59	=59	=59	=59	=59	=59-	=59-
8C/L	7 x	16G/LL 16f/	.	32d/LLL 32g/ 32bn/	.	8Bn\	er-	(>4.gg\	E-	2ryy	2ryy	.	.
.	.	.	.	32d/ 32g/ 32b/	.	.	.	.	.	.	.	.	.
.	.	16G/ 16f/	.	32d/ 32g/ 32b/	.	.	.	.	.	.	.	.	.
.	.	.	.	32d/ 32g/ 32b/	.	.	.	.	.	.	.	.	.
8C/	.	16G/ 16f/	.	32d/ 32g/ 32b/	.	8B\	-go	.	.	.	.	.	.
.	.	.	.	32d/ 32g/ 32b/	.	.	.	.	.	.	.	.	.
.	.	16G/ 16f/	.	32d/ 32g/ 32b/	.	.	.	.	.	.	.	.	.
.	.	.	.	32d/ 32g/ 32b/	.	.	.	.	.	.	.	.	.
8C/	.	16G/ 16f/	.	32d/ 32g/ 32b/	.	4r	.	.	.	.	.	.	.
.	.	.	.	32d/ 32g/ 32b/	.	.	.	.	.	.	.	.	.
.	.	16G/ 16f/	.	32d/ 32g/ 32b/	.	.	.	.	.	.	.	.	.
.	.	.	.	32d/ 32g/ 32b/	.	.	.	.	.	.	.	.	.
*	*	*	*	*	*	*	*	*Xtuplet	*	*	*	*	*
8C/J	.	16G/ 16f/	.	32d/ 32g/ 32b/	.	.	.	24ff\LL	.	.	.	.	.
.	.	.	.	32d/ 32g/ 32b/	.	.	.	.	.	.	.	.	.
.	.	.	.	.	.	.	.	24ee\)	.	.	.	.	.
.	.	16G/JJ 16f/	.	32d/ 32g/ 32b/	.	.	.	.	.	.	.	.	.
.	.	.	.	.	.	.	.	24dd\JJ	-ia	.	.	.	.
.	.	.	.	32d/JJJ 32g/ 32b/	.	.	.	.	.	.	.	.	.
=60	=60	=60	=60	=60	=60	=60	=60	=60	=60	=60	=60	=60-	=60-
8C/L	8 x	16G/LL 16e/	.	32e/LLL 32g/ 32cc/	.	8c\	ad-	8ee\	er-	2ryy	2ryy	.	.
.	.	.	.	32e/ 32g/ 32cc/	.	.	.	.	.	.	.	.	.
.	.	16G/ 16e/	.	32e/ 32g/ 32cc/	.	.	.	.	.	.	.	.	.
.	.	.	.	32e/ 32g/ 32cc/	.	.	.	.	.	.	.	.	.
8C/	.	16G/ 16e/	.	32e/ 32g/ 32cc/	.	8c\	-vo-	8ee\	-go	.	.	.	.
.	.	.	.	32e/ 32g/ 32cc/	.	.	.	.	.	.	.	.	.
.	.	16G/ 16e/	.	32e/ 32g/ 32cc/	.	.	.	.	.	.	.	.	.
.	.	.	.	32e/ 32g/ 32cc/	.	.	.	.	.	.	.	.	.
8C/	.	16G/ 16e/	.	32e/ 32g/ 32cc/	.	8c\	-ca-	4r	.	.	.	.	.
.	.	.	.	32e/ 32g/ 32cc/	.	.	.	.	.	.	.	.	.
.	.	16G/ 16e/	.	32e/ 32g/ 32cc/	.	.	.	.	.	.	.	.	.
.	.	.	.	32e/ 32g/ 32cc/	.	.	.	.	.	.	.	.	.
8C/J	.	16G/ 16e/	.	32e/ 32g/ 32cc/	.	8c\	-ta	.	.	.	.	.	.
.	.	.	.	32e/ 32g/ 32cc/	.	.	.	.	.	.	.	.	.
.	.	16G/JJ 16e/	.	32e/ 32g/ 32cc/	.	.	.	.	.	.	.	.	.
.	.	.	.	32e/JJJ 32g/ 32cc/	.	.	.	.	.	.	.	.	.
!	!	!	!	!	!	!LO:LB:g=original	!	!	!	!	!	!	!
=61	=61	=61	=61	=61	=61	=61	=61	=61	=61	=61	=61	=61-	=61-
8C/L	7 x	16G/LL 16f/	.	32d/LLL 32g/ 32bn/	.	8Bn\	no-	8gg\	ad-	2ryy	2ryy	.	.
.	.	.	.	32d/ 32g/ 32b/	.	.	.	.	.	.	.	.	.
.	.	16G/ 16f/	.	32d/ 32g/ 32b/	.	.	.	.	.	.	.	.	.
.	.	.	.	32d/ 32g/ 32b/	.	.	.	.	.	.	.	.	.
8C/	.	16G/ 16f/	.	32d/ 32g/ 32b/	.	8B\	-stra	8gg\	-vo-	.	.	.	.
.	.	.	.	32d/ 32g/ 32b/	.	.	.	.	.	.	.	.	.
.	.	16G/ 16f/	.	32d/ 32g/ 32b/	.	.	.	.	.	.	.	.	.
.	.	.	.	32d/ 32g/ 32b/	.	.	.	.	.	.	.	.	.
8C/	.	16G/ 16f/	.	32d/ 32g/ 32b/	.	4r	.	16gg\LL	-ca-	.	.	.	.
.	.	.	.	32d/ 32g/ 32b/	.	.	.	.	.	.	.	.	.
.	.	16G/ 16f/	.	32d/ 32g/ 32b/	.	.	.	16ff\JJ	.	.	.	.	.
.	.	.	.	32d/ 32g/ 32b/	.	.	.	.	.	.	.	.	.
8C/J	.	16G/ 16f/	.	32d/ 32g/ 32b/	.	.	.	16ee\LL	-ta	.	.	.	.
.	.	.	.	32d/ 32g/ 32b/	.	.	.	.	.	.	.	.	.
.	.	16G/JJ 16f/	.	32d/ 32g/ 32b/	.	.	.	16dd\JJ	.	.	.	.	.
.	.	.	.	32d/JJJ 32g/ 32b/	.	.	.	.	.	.	.	.	.
*Xtremolo	*	*Xtremolo	*	*Xtremolo	*	*	*	*	*	*	*	*	*
=62	=62	=62	=62	=62	=62	=62	=62	=62	=62	=62	=62	=62-	=62-
!!mixed beam:problem
!	!	!	!	!LO:TX:t=P:problem=mixed beam	!	!	!	!	!	!	!	!	!
4C/	.	8c/L 8e/	.	8cc\L	.	4r	.	8dd\	no-	2ryy	2ryy	0r	0r
.	.	8c/J 8e/	.	8c/J	.	.	.	8cc\	-stra	.	.	.	.
8c\L	.	8c/L	.	16ee\LL	.	8c\	il-	8ee\	il-	.	.	.	.
.	.	.	.	16cc\	.	.	.	.	.	.	.	.	.
8B-X\J	4 2	8B-X/J	.	16dd\	.	8B-X\	-los	8ee\	-los	.	.	.	.
.	.	.	.	16ee\JJ	.	.	.	.	.	.	.	.	.
!LO:LB:g=original	!	!	!	!	!	!	!	!	!	!	!	!	!
=63	=63	=63	=63	=63	=63	=63	=63	=63	=63	=63	=63	=63-	=63-
4A\	6 3	16A/LL	.	16ff\LL	.	4A\	tu-	4ff\	tu-	2ryy	2ryy	.	.
.	.	16c/	.	16f/	.	.	.	.	.	.	.	.	.
.	.	16A/	.	16a/	.	.	.	.	.	.	.	.	.
.	.	16c/JJ	.	16cc/JJ	.	.	.	.	.	.	.	.	.
*	*	*rep	*	*	*	*	*	*	*	*	*	*	*
8A\L	.	16A/LL	.	16ff\LL	.	8A\	-os	8ff\	-os	.	.	.	.
.	.	16c/	.	16cc\	.	.	.	.	.	.	.	.	.
8A\J	.	16A/	.	16aa\	.	8A\	mi-	8ff\	mi-	.	.	.	.
.	.	16c/JJ	.	16ff\JJ	.	.	.	.	.	.	.	.	.
*	*	*Xrep	*	*	*	*	*	*	*	*	*	*	*
!	!	!	!	!LO:LB:g=original	!	!	!	!	!	!	!	!	!
=64	=64	=64	=64	=64	=64	=64	=64	=64	=64	=64	=64	=64-	=64-
*tremolo	*	*	*	*	*	*	*	*	*	*	*	*	*
8B-X\L	4 2	(<16B-/LL	.	16ee\LL	.	8B-X\	-se-	8ee\	-se-	2ryy	2ryy	.	.
.	.	16c/)	.	16ff\	.	.	.	.	.	.	.	.	.
8B-\	.	(<16B-/	.	16gg\	.	8B-\	-ri-	8ee\	-ri-	.	.	.	.
.	.	16c/JJ)	.	16ff\JJ	.	.	.	.	.	.	.	.	.
*	*	*rep	*	*	*	*	*	*	*	*	*	*	*
8B-\	.	(<16B-/LL	.	16ee\LL	.	8B-\	-cor-	8ee\	-cor-	.	.	.	.
.	.	16c/)	.	16cc\	.	.	.	.	.	.	.	.	.
8B-\J	.	(<16B-/	.	16dd\	.	8B-\	-dis	8ee\	-des	.	.	.	.
.	.	16c/JJ)	.	16ee\JJ	.	.	.	.	.	.	.	.	.
*Xtremolo	*	*Xrep	*	*	*	*	*	*	*	*	*	*	*
!	!	!	!	!	!	!	!	!LO:LB:g=original	!	!	!	!	!
=65	=65	=65	=65	=65	=65	=65	=65	=65	=65	=65	=65	=65-	=65-
!!mixed beam:problem
!	!	!	!	!LO:TX:t=P:problem=mixed beam	!	!	!	!	!	!	!	!	!
8.A\L	6 3	16A/LL	.	16ff\LL	.	8.A\	o-	8.ff\	o-	2ryy	2ryy	.	.
.	.	16c/	.	16f/	.	.	.	.	.	.	.	.	.
.	.	16A/	.	16a/	.	.	.	.	.	.	.	.	.
16A\Jk	.	16c/JJ	.	16cc/JJ	.	16A\	-cu-	16ff\	-cu-	.	.	.	.
*	*	*rep	*	*	*	*	*	*	*	*	*	*	*
8A\L	.	16A/LL	.	16ff\LL	.	8A\	-los	8ff\	-los	.	.	.	.
.	.	16c/	.	16cc\	.	.	.	.	.	.	.	.	.
8A\J	.	16A/	.	16aa\	.	8A\	ad	8ff\	ad	.	.	.	.
.	.	16c/JJ	.	16ff\JJ	.	.	.	.	.	.	.	.	.
*	*	*Xrep	*	*	*	*	*	*	*	*	*	*	*
=66	=66	=66	=66	=66	=66	=66	=66	=66	=66	=66	=66	=66-	=66-
8B-\L	.	8B-/L	.	8ff\L	.	8B-\	nos	8ff\	nos	2ryy	2ryy	2r	2r
8B-\	.	8b-/	.	8dd\	.	8B-\	ad	8dd\	ad	.	.	.	.
8d\	.	8g/	.	8b-X\	.	8d\	nos	8b-X\	nos	.	.	.	.
8Bn\J	.	8f/J	.	8a\J	.	8Bn\	con-	8a\	con-	.	.	.	.
=67	=67	=67	=67	=67	=67	=67	=67	=67	=67	=67	=67	=67	=67
!!mixed beam:problem
!LO:TX:t=P:problem=mixed beam	!	!	!	!	!	!	!	!	!	!	!	!LO:TX:a:i:t=Solo	!LO:TX:a:i:t=Solo
8c\L	.	8f/L	.	8a/L	.	8c\	-ver-	8a\	-ver-	2ryy	2ryy	4r	4r
8C/	.	8e/J	.	8g/J	.	8C/	-te	8g\	-te	.	.	.	.
8C/J	.	8r	.	8r	.	4r	.	4r	.	.	.	8r	8r
!	!	!	!LO:DY:b:t=p.	!	!	!	!	!	!	!	!	!	!
8r	.	16f/LL	p	16a/LL	.	.	.	.	.	.	.	16ff\LL	16aa\LL
!	!	!	!	!	!LO:DY:b:t=p.	!	!	!	!	!	!	!	!
.	.	16g/JJ	.	16b-/JJ	p	.	.	.	.	.	.	16gg\JJ	16bb-\JJ
!	!	!LO:LB:g=original	!	!	!	!LO:LB:g=original	!	!	!	!	!	!	!
=68	=68	=68	=68	=68	=68	=68	=68	=68	=68	=68	=68	=68	=68
4F\	.	8a/L	.	8cc/L	.	0r	.	0r	.	2ryy	2ryy	8aa\L	8ccc\L
.	.	8f/	.	8a/	.	.	.	.	.	.	.	8ff\	8aa\
4D\	.	8f/	.	8a/	.	.	.	.	.	.	.	8ff\	8aa\
.	.	8f/J	.	8a/J	.	.	.	.	.	.	.	8ff\J	8aa\J
=69	=69	=69	=69	=69	=69	=69-	=69	=69-	=69	=69	=69	=69	=69
4C#X\	.	8.e/L	.	8.g/L	.	.	.	.	.	2ryy	2ryy	8.ee\L	8.gg\L
.	.	32f/LL	.	32a/LL	.	.	.	.	.	.	.	32ff\LL	32aa\LL
.	.	32e/JJJ	.	32g/JJJ	.	.	.	.	.	.	.	32ee\JJJ	32gg\JJJ
4D\	.	8d/L	.	8f/L	.	.	.	.	.	.	.	8dd\L	8ff\L
.	.	16B-/L	.	16g/L	.	.	.	.	.	.	.	16b-\L	16gg\L
.	.	16c/JJ	.	16a/JJ	.	.	.	.	.	.	.	16cc\JJ	16aa\JJ
=70	=70	=70	=70	=70	=70	=70-	=70	=70-	=70	=70	=70	=70	=70
4BB-/	.	8d/L	.	8b-/L	.	.	.	.	.	2ryy	2ryy	8dd\L	8.bb-X\L
.	.	8B-/	.	8g/	.	.	.	.	.	.	.	8b-\	.
.	.	.	.	.	.	.	.	.	.	.	.	.	16gg\K
8D/L	.	8.d/	.	8.b-/	.	.	.	.	.	.	.	8.dd\	8.bb-\
8BB-/J	.	.	.	.	.	.	.	.	.	.	.	.	.
.	.	16B-/Jk	.	16g/Jk	.	.	.	.	.	.	.	16b-\Jk	16gg\Jk
=71	=71	=71	=71	=71	=71	=71-	=71	=71-	=71	=71	=71	=71	=71
8C/L	.	4A/	.	4f/	.	.	.	.	.	2ryy	2ryy	4a/	4ff\
8CC/	.	.	.	.	.	.	.	.	.	.	.	.	.
8C/J	.	8G/L	.	8e/L	.	.	.	.	.	.	.	8g/L	8ee\L
8r	.	16c/L	.	16e/L	.	.	.	.	.	.	.	16cc/L	16ee\L
.	.	16d/JJ	.	16f/JJ	.	.	.	.	.	.	.	16dd/JJ	16ff\JJ
=72	=72	=72	=72	=72	=72	=72-	=72	=72-	=72	=72	=72	=72	=72
4c\	.	8e/L	.	8g/L	.	0r	.	0r	.	2ryy	2ryy	8ee\L	8gg\L
.	.	8e/	.	8g/	.	.	.	.	.	.	.	8ee\	8gg\
4B-X\	4 2	8e/	.	8g/	.	.	.	.	.	.	.	8ee\	8gg\
.	.	8e/J	.	8g/J	.	.	.	.	.	.	.	8ee\J	8gg\J
=73	=73	=73	=73	=73	=73	=73-	=73	=73-	=73	=73	=73	=73	=73
4A\	.	8.f/L	.	8.a/L	.	.	.	.	.	2ryy	2ryy	8.ff\L	8.aa\L
.	.	16g/Jk	.	16b-/Jk	.	.	.	.	.	.	.	16gg\Jk	16bb-\Jk
4F\	.	4a/	.	4cc/	.	.	.	.	.	.	.	4aa\	4ccc\
=74	=74	=74	=74	=74	=74	=74-	=74	=74-	=74	=74	=74	=74	=74
!!mixed beam:problem
!LO:TX:t=P:problem=mixed beam	!	!	!	!	!	!	!	!	!	!	!	!	!
8B-\L	.	16.d/LL	.	16.b-/LL	.	.	.	.	.	2ryy	2ryy	16.dd\LL	16.bb-\LL
.	.	32B-/K	.	32g/K	.	.	.	.	.	.	.	32b-\K	32gg\K
8G\	.	16.d/	.	16.b-/	.	.	.	.	.	.	.	16.dd\	16.bb-\
.	.	32B-/JJk	.	32g/JJk	.	.	.	.	.	.	.	32b-\JJk	32gg\JJk
8c\	.	8A/L	.	8f/L	.	.	.	.	.	.	.	8a/L	8ff\L
8C/J	.	8G/J	.	8e/J	.	.	.	.	.	.	.	8g/J	8ee\J
!LO:LB:g=original	!	!	!	!LO:LB:g=original	!	!	!	!	!	!	!	!	!LO:LB:g=original
=75	=75	=75	=75	=75	=75	=75-	=75	=75-	=75	=75	=75	=75	=75
4F\	.	8.f/L	.	8.a/L	.	.	.	.	.	2ryy	2ryy	8.ff\L	8.aa\L
.	.	16g/Jk	.	16b-/Jk	.	.	.	.	.	.	.	16gg\Jk	16bb-\Jk
4r	.	4a/	.	4cc/	.	.	.	.	.	.	.	4aa\	4ccc\
!	!	!	!	!	!	!	!	!	!	!	!	!LO:LB:g=original	!
=76	=76	=76	=76	=76	=76	=76-	=76	=76-	=76	=76	=76	=76	=76
!!mixed beam:problem
!LO:TX:t=P:problem=mixed beam	!	!	!	!	!	!	!	!	!	!	!	!	!
8B-\L	.	16.d/LL	.	16.b-/LL	.	2r	.	2r	.	2ryy	2ryy	16.dd\LL	16.bb-\LL
.	.	32B-/K	.	32g/K	.	.	.	.	.	.	.	32b-\K	32gg\K
8G\	.	16.d/	.	16.b-/	.	.	.	.	.	.	.	16.dd\	16.bb-\
.	.	32B-/JJk	.	32g/JJk	.	.	.	.	.	.	.	32b-\JJk	32gg\JJk
8c\	.	8A/L	.	8f/L	.	.	.	.	.	.	.	8a/L	8ff\L
8C/J	.	8G/J	.	8e/J	.	.	.	.	.	.	.	8g/J	8ee\J
=77	=77	=77	=77	=77	=77	=77	=77	=77	=77	=77	=77	=77	=77
8F\	.	8A/	.	8f/L	.	8r	.	8r	.	2ryy	2ryy	8a/	8ff\
8r	.	8r	.	8cc/	.	8c\	Et	8cc\	Et	.	.	8r	8r
4r	.	4r	.	8dd/	.	8d\L	Je-	8dd\L	Je-	.	.	4r	4r
.	.	.	.	8ee/J	.	8e\J	.	8ee\J	.	.	.	.	.
!	!	!LO:LB:g=original	!	!	!	!	!	!	!	!	!	!	!
=78	=78	=78	=78	=78	=78	=78	=78	=78	=78	=78	=78	=78	=78
!!mixed beam:problem
!LO:TX:t=P:problem=mixed beam	!	!	!	!	!	!LO:TX:t=P:problem=brak taktu nr 78	!	!	!	!	!	!	!
8F\L	.	8r	.	8ff\L	.	2ryy	.	8ff\	-sum	2ryy	2ryy	0r	0r
8C/	.	8cc\L	.	8ee\	.	.	.	8ee\	et	.	.	.	.
8D/	.	8dd\	.	8ff\	.	.	.	8ff\L	Je-	.	.	.	.
8E/J	.	8ee\J	.	8gg\J	.	.	.	8gg\J	.	.	.	.	.
=79	=79	=79	=79	=79	=79	=79	=79	=79	=79	=79	=79	=79-	=79-
4F\	.	4ff\	.	4aa\	.	4f\	-sum	4aa\	-sum	2ryy	2ryy	.	.
!	!	!	!	!	!	!	!	!LO:LB:g=original	!	!	!	!	!
8d\L	.	8ff\L	.	8aa\L	.	8d\	be-	8aa\	be-	.	.	.	.
8d\J	.	8ff\J	.	8aa\J	.	8d\	-ne-	8aa\	-ne-	.	.	.	.
=80	=80	=80	=80	=80	=80	=80	=80	=80	=80	=80	=80	=80-	=80-
4c#X\	.	4ee\	.	4gg\	.	4c#X\	-di-	4gg\	-di-	2ryy	2ryy	.	.
4d\	.	4dd\	.	4ff\	.	4d\	-ctum	4ff\	-ctum	.	.	.	.
=81	=81	=81	=81	=81	=81	=81	=81	=81	=81	=81	=81	=81-	=81-
*tremolo	*	*	*	*	*	*	*	*	*	*	*	*	*
8cn\L	6 x	16cc\LL	.	16ee-X\LL	.	8cn\	fru-	8ee-X\	fru-	2ryy	2ryy	.	.
.	.	16f\	.	16aa\	.	.	.	.	.	.	.	.	.
8c\	.	16a\	.	16ccc\	.	8c\	-ctum	8ee-\	-ctum	.	.	.	.
.	.	16g\JJ	.	16bb-\JJ	.	.	.	.	.	.	.	.	.
8c\	.	16f/LL	.	16aa\LL	.	8c\	ven-	8ee-\	ven-	.	.	.	.
.	.	16e-X/	.	16ff\	.	.	.	.	.	.	.	.	.
8c\J	.	16d/	.	16gg\	.	8c\	-tris	8ee-\	-tris	.	.	.	.
.	.	16c/JJ	.	16aa\JJ	.	.	.	.	.	.	.	.	.
=82	=82	=82	=82	=82	=82	=82	=82	=82	=82	=82	=82	=82-	=82-
8B-\L	.	16d/LL	.	16bb-\LL	.	4B-X\	tu-	4dd\	tu-	2ryy	2ryy	0r	0r
.	.	16f/	.	16aa\	.	.	.	.	.	.	.	.	.
8B-\	.	16d/	.	16bb-\	.	.	.	.	.	.	.	.	.
.	.	16f/JJ	.	16aa\JJ	.	.	.	.	.	.	.	.	.
*	*	*rep	*	*	*	*	*	*	*	*	*	*	*
8B-\	.	16d/LL	.	16bb-\LL	.	4B-\	-i	4dd\	-i	.	.	.	.
.	.	16f/	.	16ff\	.	.	.	.	.	.	.	.	.
8B-\J	.	16d/	.	16dd\	.	.	.	.	.	.	.	.	.
.	.	16f/JJ	.	16b-\JJ	.	.	.	.	.	.	.	.	.
*	*	*Xrep	*	*	*	*	*	*	*	*	*	*	*
=83	=83	=83	=83	=83	=83	=83	=83	=83	=83	=83	=83	=83-	=83-
8A\L	.	16a/LL	.	16cc\LL	.	4A\	no-	4cc\	no-	2ryy	2ryy	.	.
.	.	16d/	.	16ff#X\	.	.	.	.	.	.	.	.	.
8A\	.	16f#X/	.	16aa\	.	.	.	.	.	.	.	.	.
.	.	16e-X/JJ	.	16gg\JJ	.	.	.	.	.	.	.	.	.
8A\	.	16d/LL	.	16ff#X\LL	.	4A\	-bis	4cc\	-bis	.	.	.	.
.	.	16c/	.	16dd\	.	.	.	.	.	.	.	.	.
8A\J	.	16B-/	.	16een\	.	.	.	.	.	.	.	.	.
.	.	16A/JJ	.	16ff#\JJ	.	.	.	.	.	.	.	.	.
=84	=84	=84	=84	=84	=84	=84	=84	=84	=84	=84	=84	=84-	=84-
8G\L	.	16B-/LL	.	16gg\LL	.	4G\	post	4b-\	post	2ryy	2ryy	.	.
.	.	16d/	.	16ff#X\	.	.	.	.	.	.	.	.	.
8G\	.	16B-/	.	16gg\	.	.	.	.	.	.	.	.	.
.	.	16d/JJ	.	16ff#\JJ	.	.	.	.	.	.	.	.	.
*	*	*rep	*	*	*	*	*	*	*	*	*	*	*
8G\	.	16B-/LL	.	16gg\LL	.	8G\	hoc	8b-\	hoc	.	.	.	.
.	.	16d/	.	16dd\	.	.	.	.	.	.	.	.	.
8G\J	.	16B-/	.	16b-\	.	8G\	e-	8b-\	e-	.	.	.	.
.	.	16d/JJ	.	16g\JJ	.	.	.	.	.	.	.	.	.
*	*	*Xrep	*	*	*	*	*	*	*	*	*	*	*
=85	=85	=85	=85	=85	=85	=85	=85	=85	=85	=85	=85	=85-	=85-
8E\L	.	16g/LL	.	16b-\LL	.	8G\	-xi-	8b-\	-xi-	2ryy	2ryy	.	.
.	.	16c/	.	16een\	.	.	.	.	.	.	.	.	.
8E\	.	16en/	.	16gg\	.	8G\	-li-	8b-\	-li-	.	.	.	.
.	.	16d/JJ	.	16ffn\JJ	.	.	.	.	.	.	.	.	.
!	!	!	!	!LO:LB:g=original	!	!LO:LB:g=original	!	!	!	!	!	!	!
8E\	.	16c/LL	.	16ee\LL	.	8G\	-um	8b-\	-um	.	.	.	.
.	.	16B-/	.	16cc\	.	.	.	.	.	.	.	.	.
8E\J	.	16A/	.	16dd\	.	8G\	o-	8b-\	o-	.	.	.	.
.	.	16G/JJ	.	16ee\JJ	.	.	.	.	.	.	.	.	.
!	!	!	!	!	!	!	!	!LO:LB:g=original	!	!	!	!	!
=86	=86	=86	=86	=86	=86	=86	=86	=86	=86	=86	=86	=86-	=86-
8F\L	.	16A/LL	.	16ff\LL	.	4F\	-sten-	4a\	-sten-	2ryy	2ryy	0r	0r
.	.	16c/	.	16ee\	.	.	.	.	.	.	.	.	.
8F\	.	16A/	.	16ff\	.	.	.	.	.	.	.	.	.
.	.	16c/JJ	.	16ee\JJ	.	.	.	.	.	.	.	.	.
*	*	*rep	*	*	*	*	*	*	*	*	*	*	*
8F\	.	16A/LL	.	16ff\LL	.	8F\	-de	8a\	-de	.	.	.	.
.	.	16c/	.	16cc\	.	.	.	.	.	.	.	.	.
8F\J	.	16A/	.	16a\	.	8F\	e-	8a\	e-	.	.	.	.
.	.	16c/JJ	.	16f\JJ	.	.	.	.	.	.	.	.	.
*Xtremolo	*	*Xrep	*	*	*	*	*	*	*	*	*	*	*
!	!	!LO:LB:g=original	!	!	!	!	!	!	!	!	!	!	!
=87	=87	=87	=87	=87	=87	=87	=87	=87	=87	=87	=87	=87-	=87-
8F\L	.	16f/LL	.	16f/LL	.	8F\	-xi-	8a\	-xi-	2ryy	2ryy	.	.
.	.	16f/	.	16a/ 16ff/	.	.	.	.	.	.	.	.	.
8d\	.	16d/	.	16a/ 16ff/	.	8d\	-li-	8a\	-li-	.	.	.	.
.	.	16d/JJ	.	16a/JJ 16ff/	.	.	.	.	.	.	.	.	.
*	*	*	*	*tremolo	*	*	*	*	*	*	*	*	*
8c\	.	16c/LL	.	16a/LL 16ff/	.	8c\	-um	8a\	-um	.	.	.	.
.	.	16c/	.	16a/ 16ff/	.	.	.	.	.	.	.	.	.
8Bn\J	.	16Bn/	.	16a/ 16ff/	.	8Bn\	o-	8a\	o-	.	.	.	.
.	.	16B/JJ	.	16a/JJ 16ff/	.	.	.	.	.	.	.	.	.
*	*	*	*	*Xtremolo	*	*	*	*	*	*	*	*	*
=88	=88	=88	=88	=88	=88	=88	=88	=88	=88	=88	=88	=88-	=88-
!!mixed beam:problem
!LO:TX:t=P:problem=mixed beam	!	!	!	!	!	!	!	!	!	!	!	!	!
8c\L	.	8c/L	.	8a/L 8ff/	.	8c\	-sten-	8a\	-sten-	2ryy	2ryy	.	.
8C/	.	16g/L	.	16ee/L	.	8C/	-de	8g\	-de	.	.	.	.
.	.	16f/JJ	.	16dd/JJ	.	.	.	.	.	.	.	.	.
8C/J	.	16e/LL	.	16cc/LL	.	4r	.	4r	.	.	.	.	.
.	.	16d/	.	16b-X/	.	.	.	.	.	.	.	.	.
8r	.	16c/	.	16a/	.	.	.	.	.	.	.	.	.
.	.	16B-X/JJ	.	16g/JJ	.	.	.	.	.	.	.	.	.
!LO:LB:g=original	!	!	!	!	!	!	!	!	!	!	!	!	!
=89	=89	=89	=89	=89	=89	=89	=89	=89	=89	=89	=89	=89-	=89-
*tremolo	*	*	*	*tremolo	*	*	*	*	*	*	*	*	*
8F\L	.	32A/LLL	.	16A/LL 16f/	.	8r	.	2r	.	2ryy	2ryy	.	.
.	.	32c/	.	.	.	.	.	.	.	.	.	.	.
.	.	32c/	.	16A/ 16f/	.	.	.	.	.	.	.	.	.
.	.	32c/JJJ	.	.	.	.	.	.	.	.	.	.	.
8F\	.	32c/LLL	.	16A/ 16f/	.	8c\	O	.	.	.	.	.	.
.	.	32c/	.	.	.	.	.	.	.	.	.	.	.
.	.	32c/	.	16A/ 16f/	.	.	.	.	.	.	.	.	.
.	.	32c/JJJ	.	.	.	.	.	.	.	.	.	.	.
*	*	*tremolo	*	*	*	*	*	*	*	*	*	*	*
8F\	.	32c/LLL	.	16A/ 16f/	.	8A\L	cle-	.	.	.	.	.	.
.	.	32c/	.	.	.	.	.	.	.	.	.	.	.
.	.	32c/	.	16A/ 16f/	.	.	.	.	.	.	.	.	.
.	.	32c/	.	.	.	.	.	.	.	.	.	.	.
8F\J	.	32c/	.	16A/ 16f/	.	8F\J	.	.	.	.	.	.	.
.	.	32c/	.	.	.	.	.	.	.	.	.	.	.
.	.	32c/	.	16A/JJ 16f/	.	.	.	.	.	.	.	.	.
.	.	32c/JJJ	.	.	.	.	.	.	.	.	.	.	.
*	*	*Xtremolo	*	*	*	*	*	*	*	*	*	*	*
=90	=90	=90	=90	=90	=90	=90	=90	=90	=90	=90	=90	=90-	=90-
8F\L	4 2	32B-/LLL	.	16G/LL 16e/	.	4E\	-mens	8r	.	2ryy	2ryy	0r	0r
.	.	32c/	.	.	.	.	.	.	.	.	.	.	.
.	.	32B-/	.	16G/ 16e/	.	.	.	.	.	.	.	.	.
.	.	32c/JJJ	.	.	.	.	.	.	.	.	.	.	.
*	*	*rep	*	*	*	*	*	*	*	*	*	*	*
8F\	.	32B-/LLL	.	16G/ 16e/	.	.	.	8gg\	O	.	.	.	.
.	.	32c/	.	.	.	.	.	.	.	.	.	.	.
.	.	32B-/	.	16G/ 16e/	.	.	.	.	.	.	.	.	.
.	.	32c/JJJ	.	.	.	.	.	.	.	.	.	.	.
*	*	*Xrep	*	*	*	*	*	*	*	*	*	*	*
*	*	*rep	*	*	*	*	*	*	*	*	*	*	*
8F\	.	32B-/LLL	.	16G/ 16e/	.	4r	.	8ee\L	pi-	.	.	.	.
.	.	32c/	.	.	.	.	.	.	.	.	.	.	.
.	.	32B-/	.	16G/ 16e/	.	.	.	.	.	.	.	.	.
.	.	32c/JJJ	.	.	.	.	.	.	.	.	.	.	.
*	*	*Xrep	*	*	*	*	*	*	*	*	*	*	*
*	*	*rep	*	*	*	*	*	*	*	*	*	*	*
8F\J	.	32B-/LLL	.	16G/ 16e/	.	.	.	8cc\J	.	.	.	.	.
.	.	32c/	.	.	.	.	.	.	.	.	.	.	.
.	.	32B-/	.	16G/JJ 16e/	.	.	.	.	.	.	.	.	.
.	.	32c/JJJ	.	.	.	.	.	.	.	.	.	.	.
*	*	*Xrep	*	*	*	*	*	*	*	*	*	*	*
=91	=91	=91	=91	=91	=91	=91	=91	=91	=91	=91	=91	=91-	=91-
*	*	*tremolo	*	*	*	*	*	*	*	*	*	*	*
8F\L	5 3	32c/LLL	.	16A/LL 16f/	.	8r	.	8ff\	-a	2ryy	2ryy	.	.
.	.	32c/	.	.	.	.	.	.	.	.	.	.	.
.	.	32c/	.	16A/ 16f/	.	.	.	.	.	.	.	.	.
.	.	32c/	.	.	.	.	.	.	.	.	.	.	.
8F\	.	32c/	.	16A/ 16f/	.	8c\	O	8r	.	.	.	.	.
.	.	32c/	.	.	.	.	.	.	.	.	.	.	.
.	.	32c/	.	16A/ 16f/	.	.	.	.	.	.	.	.	.
.	.	32c/	.	.	.	.	.	.	.	.	.	.	.
8F\	.	32c/	.	16A/ 16f/	.	8A\L	Cle-	4r	.	.	.	.	.
.	.	32c/	.	.	.	.	.	.	.	.	.	.	.
.	.	32c/	.	16A/ 16f/	.	.	.	.	.	.	.	.	.
.	.	32c/	.	.	.	.	.	.	.	.	.	.	.
8F\J	.	32c/	.	16A/ 16f/	.	8F\J	.	.	.	.	.	.	.
.	.	32c/	.	.	.	.	.	.	.	.	.	.	.
.	.	32c/	.	16A/JJ 16f/	.	.	.	.	.	.	.	.	.
.	.	32c/JJJ	.	.	.	.	.	.	.	.	.	.	.
*	*	*Xtremolo	*	*	*	*	*	*	*	*	*	*	*
=92	=92	=92	=92	=92	=92	=92	=92	=92	=92	=92	=92	=92-	=92-
8F\L	4 2	32B-/LLL	.	16G/LL 16e/	.	4E\	-mens	8r	.	2ryy	2ryy	.	.
.	.	32c/	.	.	.	.	.	.	.	.	.	.	.
.	.	32B-/	.	16G/ 16e/	.	.	.	.	.	.	.	.	.
.	.	32c/JJJ	.	.	.	.	.	.	.	.	.	.	.
*	*	*rep	*	*	*	*	*	*	*	*	*	*	*
8F\	.	32B-/LLL	.	16G/ 16e/	.	.	.	8gg\	o	.	.	.	.
.	.	32c/	.	.	.	.	.	.	.	.	.	.	.
.	.	32B-/	.	16G/ 16e/	.	.	.	.	.	.	.	.	.
.	.	32c/JJJ	.	.	.	.	.	.	.	.	.	.	.
*	*	*Xrep	*	*	*	*	*	*	*	*	*	*	*
*	*	*rep	*	*	*	*	*	*	*	*	*	*	*
8F\	.	32B-/LLL	.	16G/ 16e/	.	4r	.	8ee\L	pi-	.	.	.	.
.	.	32c/	.	.	.	.	.	.	.	.	.	.	.
.	.	32B-/	.	16G/ 16e/	.	.	.	.	.	.	.	.	.
.	.	32c/JJJ	.	.	.	.	.	.	.	.	.	.	.
*	*	*Xrep	*	*	*	*	*	*	*	*	*	*	*
*	*	*rep	*	*	*	*	*	*	*	*	*	*	*
8F\J	.	32B-/LLL	.	16G/ 16e/	.	.	.	8cc\J	.	.	.	.	.
.	.	32c/	.	.	.	.	.	.	.	.	.	.	.
.	.	32B-/	.	16G/JJ 16e/	.	.	.	.	.	.	.	.	.
.	.	32c/JJJ	.	.	.	.	.	.	.	.	.	.	.
*Xtremolo	*	*Xrep	*	*Xtremolo	*	*	*	*	*	*	*	*	*
!	!	!	!	!	!	!LO:LB:g=original	!	!LO:LB:g=original	!	!	!	!	!
=93	=93	=93	=93	=93	=93	=93	=93	=93	=93	=93	=93	=93-	=93-
8F\	.	8c/L	.	8A/L 8f/	.	8r	.	8ff\	-a	2ryy	2ryy	.	.
8r	.	8f/	.	8a/	.	8F\	O	8a\	o	.	.	.	.
4r	.	8g/	.	8b-/	.	8G\L	dul-	8b-\L	dul-	.	.	.	.
.	.	8a/J	.	8cc/J	.	8A\J	.	8cc\J	.	.	.	.	.
!	!	!LO:LB:g=original	!	!	!	!	!	!	!	!	!	!	!
=94	=94	=94	=94	=94	=94	=94	=94	=94	=94	=94	=94	=94-	=94-
2r	.	8b-\L	.	8dd\L	.	8B-X\	-cis	8dd\	-cis	2ryy	2ryy	2r	2r
.	.	8cc\	.	8ee\	.	8c\	o	8ee\	o	.	.	.	.
.	.	8dd\	.	8ff\	.	8d\	dul-	8ff\	dul-	.	.	.	.
.	.	8ee\J	.	8gg\J	.	8e\	-cis	8gg\	-cis	.	.	.	.
=95	=95	=95	=95	=95	=95	=95	=95	=95	=95	=95	=95	=95	=95
8d\L	.	16ff\LL	.	16aa\LL	.	4f\	Vir-	4aa\	Vir-	2ryy	2ryy	4ff\	4aa\
.	.	16dd\	.	16ff\	.	.	.	.	.	.	.	.	.
8d\	.	16a\	.	16cc#X\	.	.	.	.	.	.	.	.	.
.	.	16f\JJ	.	16dd\JJ	.	.	.	.	.	.	.	.	.
8c#X\	.	16e/LL	.	16gg\LL	.	4c#X\	-go	4gg\	-go	.	.	4ee\	4gg\
.	.	16g/	.	16ee\	.	.	.	.	.	.	.	.	.
8c#\J	.	16a/	.	16cc#X\	.	.	.	.	.	.	.	.	.
.	.	16g/JJ	.	16a\JJ	.	.	.	.	.	.	.	.	.
=96	=96	=96	=96	=96	=96	=96	=96	=96	=96	=96	=96	=96	=96
8d\L	.	16dd\LL	.	16ff\LL	.	4d\	Vir-	4ff\	Vir-	2ryy	2ryy	4dd\	4ff\
.	.	16a\	.	16dd\	.	.	.	.	.	.	.	.	.
8d\	.	16f\	.	16g#X\	.	.	.	.	.	.	.	.	.
.	.	16d\JJ	.	16a\JJ	.	.	.	.	.	.	.	.	.
8cn\	- x	16c/LL	.	16ee-X\LL	.	8cn\	-go	8ee-X\	-go	.	.	8cc\L	8ee-X\L
.	.	16e-X/	.	16cc\	.	.	.	.	.	.	.	.	.
8c\J	.	16f/	.	16a\	.	8c\	vir-	8ee-\	Vir-	.	.	8cc\J	8ee-\J
.	.	16e-/JJ	.	16f\JJ	.	.	.	.	.	.	.	.	.
!	!	!	!	!LO:LB:g=original	!	!	!	!	!	!	!	!	!
=97	=97	=97	=97	=97	=97	=97	=97	=97	=97	=97	=97	=97	=97
!!mixed beam:problem
!LO:TX:t=P:problem=mixed beam	!	!	!	!	!	!	!	!	!	!	!	!	!
8B-\L	.	8B-/L 8d/	.	8dd\L	.	8B-\	-go	8dd\	-go	2ryy	2ryy	8b-\L	8dd\L
8G\	.	8b-/	.	8gg\	.	8G\	ma-	8gg\	ma-	.	.	8b-\	8gg\
!	!	!	!	!	!	!LO:TX:t=P:problem=mixed beam	!	!	!	!	!	!	!
8c\	.	8a/	.	8ff\	.	8c\L	-ri-	8ff\L	-ri-	.	.	8a\	8ff\
8C/J	.	8g/J	.	8een\J	.	8C/J	.	8een\J	.	.	.	8g\J	8een\J
=98	=98	=98	=98	=98	=98	=98	=98	=98	=98	=98	=98	=98	=98
*tremolo	*	*tremolo	*	*	*	*	*	*	*	*	*	*	*
8F\L	.	32f/LLL 32a/	.	16ff\LL	.	8F\	-a	8ff\	-a	2ryy	2ryy	8a/	8ff\
.	.	32f/ 32a/	.	.	.	.	.	.	.	.	.	.	.
.	.	32f/ 32a/	.	16cc\	.	.	.	.	.	.	.	.	.
.	.	32f/ 32a/	.	.	.	.	.	.	.	.	.	.	.
8F\	.	32f/ 32a/	.	16cc\	.	8c\	O	8r	.	.	.	4ff\	4aa\
.	.	32f/ 32a/	.	.	.	.	.	.	.	.	.	.	.
.	.	32f/ 32a/	.	16cc\JJ	.	.	.	.	.	.	.	.	.
.	.	32f/ 32a/	.	.	.	.	.	.	.	.	.	.	.
*	*	*	*	*tremolo	*	*	*	*	*	*	*	*	*
8F\	.	32f/ 32a/	.	16cc\LL	.	8A\L	cle-	4r	.	.	.	.	.
.	.	32f/ 32a/	.	.	.	.	.	.	.	.	.	.	.
.	.	32f/ 32a/	.	16cc\	.	.	.	.	.	.	.	.	.
.	.	32f/ 32a/	.	.	.	.	.	.	.	.	.	.	.
8F\J	.	32f/ 32a/	.	16cc\	.	8F\J	.	.	.	.	.	8ff\	8aa\
.	.	32f/ 32a/	.	.	.	.	.	.	.	.	.	.	.
.	.	32f/ 32a/	.	16cc\JJ	.	.	.	.	.	.	.	.	.
.	.	32f/JJJ 32a/	.	.	.	.	.	.	.	.	.	.	.
!	!	!	!	!	!	!	!	!LO:LB:g=original	!	!	!	!	!
=99	=99	=99	=99	=99	=99	=99	=99	=99	=99	=99	=99	=99	=99
8F\L	4 2	32g/LLL 32b-X/	.	32e/LLL 32cc/	.	4E\	-mens	8r	.	2ryy	2ryy	2gg\	2bb-\
.	.	32g/ 32b-/	.	32e/ 32cc/	.	.	.	.	.	.	.	.	.
.	.	32g/ 32b-/	.	32e/ 32cc/	.	.	.	.	.	.	.	.	.
.	.	32g/ 32b-/	.	32e/ 32cc/	.	.	.	.	.	.	.	.	.
8F\	.	32g/ 32b-/	.	32e/ 32cc/	.	.	.	8gg\	O	.	.	.	.
.	.	32g/ 32b-/	.	32e/ 32cc/	.	.	.	.	.	.	.	.	.
.	.	32g/ 32b-/	.	32e/ 32cc/	.	.	.	.	.	.	.	.	.
.	.	32g/ 32b-/	.	32e/ 32cc/	.	.	.	.	.	.	.	.	.
8F\	.	32g/ 32b-/	.	32e/ 32cc/	.	4r	.	8ee\L	pi-	.	.	.	.
.	.	32g/ 32b-/	.	32e/ 32cc/	.	.	.	.	.	.	.	.	.
.	.	32g/ 32b-/	.	32e/ 32cc/	.	.	.	.	.	.	.	.	.
.	.	32g/ 32b-/	.	32e/ 32cc/	.	.	.	.	.	.	.	.	.
8F\J	.	32g/ 32b-/	.	32e/ 32cc/	.	.	.	8cc\J	.	.	.	.	.
.	.	32g/ 32b-/	.	32e/ 32cc/	.	.	.	.	.	.	.	.	.
.	.	32g/ 32b-/	.	32e/ 32cc/	.	.	.	.	.	.	.	.	.
.	.	32g/JJJ 32b-/	.	32e/JJJ 32cc/	.	.	.	.	.	.	.	.	.
!	!	!	!	!	!	!LO:LB:g=original	!	!	!	!	!	!	!
=100	=100	=100	=100	=100	=100	=100	=100	=100	=100	=100	=100	=100	=100
8F\L	.	32f/LLL 32a/	.	32e/LLL 32cc/	.	8r	.	8ff\	-a	2ryy	2ryy	2ff\	2aa\
.	.	32f/ 32a/	.	32e/ 32cc/	.	.	.	.	.	.	.	.	.
.	.	32f/ 32a/	.	32e/ 32cc/	.	.	.	.	.	.	.	.	.
.	.	32f/ 32a/	.	32e/ 32cc/	.	.	.	.	.	.	.	.	.
8F\	.	32f/ 32a/	.	32e/ 32cc/	.	8c\	O	8r	.	.	.	.	.
.	.	32f/ 32a/	.	32e/ 32cc/	.	.	.	.	.	.	.	.	.
.	.	32f/ 32a/	.	32e/ 32cc/	.	.	.	.	.	.	.	.	.
.	.	32f/ 32a/	.	32e/ 32cc/	.	.	.	.	.	.	.	.	.
8F\	.	32f/ 32a/	.	32e/ 32cc/	.	8A\L	cle-	4r	.	.	.	.	.
.	.	32f/ 32a/	.	32e/ 32cc/	.	.	.	.	.	.	.	.	.
.	.	32f/ 32a/	.	32e/ 32cc/	.	.	.	.	.	.	.	.	.
.	.	32f/ 32a/	.	32e/ 32cc/	.	.	.	.	.	.	.	.	.
8F\J	.	32f/ 32a/	.	32e/ 32cc/	.	8F\J	-mens	.	.	.	.	.	.
.	.	32f/ 32a/	.	32e/ 32cc/	.	.	.	.	.	.	.	.	.
.	.	32f/ 32a/	.	32e/ 32cc/	.	.	.	.	.	.	.	.	.
.	.	32f/JJJ 32a/	.	32e/JJJ 32cc/	.	.	.	.	.	.	.	.	.
=101	=101	=101	=101	=101	=101	=101	=101	=101	=101	=101	=101	=101	=101
!	!	!	!	!	!	!LO:TX:t=P:problem=brak taktu nr 101	!	!	!	!	!	!	!
8F\L	4 2	32g/LLL 32b-/	.	32e/LLL 32cc/	.	2ryy	.	8r	.	2ryy	2ryy	2gg\	2bb-\
.	.	32g/ 32b-/	.	32e/ 32cc/	.	.	.	.	.	.	.	.	.
.	.	32g/ 32b-/	.	32e/ 32cc/	.	.	.	.	.	.	.	.	.
.	.	32g/ 32b-/	.	32e/ 32cc/	.	.	.	.	.	.	.	.	.
8F\	.	32g/ 32b-/	.	32e/ 32cc/	.	.	.	8gg\	o	.	.	.	.
.	.	32g/ 32b-/	.	32e/ 32cc/	.	.	.	.	.	.	.	.	.
.	.	32g/ 32b-/	.	32e/ 32cc/	.	.	.	.	.	.	.	.	.
.	.	32g/ 32b-/	.	32e/ 32cc/	.	.	.	.	.	.	.	.	.
8F\	.	32g/ 32b-/	.	32e/ 32cc/	.	.	.	8ee\L	pi-	.	.	.	.
.	.	32g/ 32b-/	.	32e/ 32cc/	.	.	.	.	.	.	.	.	.
.	.	32g/ 32b-/	.	32e/ 32cc/	.	.	.	.	.	.	.	.	.
.	.	32g/ 32b-/	.	32e/ 32cc/	.	.	.	.	.	.	.	.	.
8F\J	.	32g/ 32b-/	.	32e/ 32cc/	.	.	.	8cc\J	.	.	.	.	.
.	.	32g/ 32b-/	.	32e/ 32cc/	.	.	.	.	.	.	.	.	.
.	.	32g/ 32b-/	.	32e/ 32cc/	.	.	.	.	.	.	.	.	.
.	.	32g/JJJ 32b-/	.	32e/JJJ 32cc/	.	.	.	.	.	.	.	.	.
*Xtremolo	*	*Xtremolo	*	*Xtremolo	*	*	*	*	*	*	*	*	*
=102	=102	=102	=102	=102	=102	=102	=102	=102	=102	=102	=102	=102	=102
!	!	!	!	!	!	!	!	!	!	!	!	!LO:TX:t=P:problem=mixed beam	!
8F\	.	8f/L 8a/	.	8cc/L	.	8r	.	8ff\	-a	2ryy	2ryy	8ff\L	8aa\L
8r	.	8f/	.	8a/	.	8F\	O	8a\	o	.	.	8f/	8a/
4r	.	8g/	.	8b-/	.	8G\L	dul-	8b-\L	dul-	.	.	8g/	8b-/
.	.	8a/J	.	8cc/J	.	8A\J	.	8cc\J	.	.	.	8a/J	8cc/J
=103	=103	=103	=103	=103	=103	=103	=103	=103	=103	=103	=103	=103	=103
2r	.	8b-\L	.	8dd\L	.	8B-\	-cis	8dd\	-cis	2ryy	2ryy	8b-\L	8dd\L
.	.	8cc\	.	8ee\	.	8c\	o	8ee\	o	.	.	8cc\	8ee\
.	.	8dd\	.	8ff\	.	8d\	dul-	8ff\	dul-	.	.	8dd\	8ff\
.	.	8ee\J	.	8gg\J	.	8e\	-cis	8gg\	-cis	.	.	8ee\J	8gg\J
!LO:LB:g=original	!	!	!	!	!	!	!	!	!	!	!	!	!LO:LB:g=original
=104	=104	=104	=104	=104	=104	=104	=104	=104	=104	=104	=104	=104	=104
8d\L	.	16ff\LL	.	16aa\LL	.	4f\	Vir-	4aa\	vir-	2ryy	2ryy	4ff\	4aa\
.	.	16dd\	.	16ff\	.	.	.	.	.	.	.	.	.
8d\	.	16a\	.	16cc#X\	.	.	.	.	.	.	.	.	.
.	.	16f\JJ	.	16dd\JJ	.	.	.	.	.	.	.	.	.
8c#X\	.	16e/LL	.	16gg\LL	.	4c#X\	-go	4gg\	-go	.	.	4ee\	4gg\
.	.	16g/	.	16ee\	.	.	.	.	.	.	.	.	.
8c#\J	.	16a/	.	16cc#X\	.	.	.	.	.	.	.	.	.
.	.	16g/JJ	.	16a\JJ	.	.	.	.	.	.	.	.	.
!	!	!LO:LB:g=original	!	!	!	!	!	!	!	!	!	!	!
=105	=105	=105	=105	=105	=105	=105	=105	=105	=105	=105	=105	=105	=105
8d\L	.	16dd\LL	.	16ff\LL	.	4d\	Vir-	4ff\	vir-	2ryy	2ryy	4dd\	4ff\
.	.	16a\	.	16dd\	.	.	.	.	.	.	.	.	.
8d\	.	16f\	.	16g#X\	.	.	.	.	.	.	.	.	.
.	.	16d\JJ	.	16a\JJ	.	.	.	.	.	.	.	.	.
!	!	!	!	!	!	!	!	!LO:LB:g=original	!	!	!	!	!
8cn\	- x	16c/LL	.	16ee-X\LL	.	8cn\	-go	8ee-X\	-go	.	.	8cc\L	8ee-X\L
.	.	16e-X/	.	16cc\	.	.	.	.	.	.	.	.	.
8c\J	.	16f/	.	16a\	.	8c\	Vir-	8ee-\	vir-	.	.	8cc\J	8ee-\J
.	.	16e-/JJ	.	16f\JJ	.	.	.	.	.	.	.	.	.
!	!	!	!	!	!	!	!	!	!	!	!	!LO:LB:g=original	!
=106	=106	=106	=106	=106	=106	=106	=106	=106	=106	=106	=106	=106	=106
!!mixed beam:problem
!LO:TX:t=P:problem=mixed beam	!	!	!	!	!	!	!	!	!	!	!	!	!
8B-\L	.	8B-/L 8d/	.	8dd\L	.	8B-\	-go	8dd\	-go	2ryy	2ryy	8b-\L	8dd\L
8G\	.	8b-/	.	8gg\	.	8G\	ma-	8gg\	ma-	.	.	8b-\	8gg\
!	!	!	!	!	!	!LO:TX:t=P:problem=mixed beam	!	!	!	!	!	!	!
8c\	.	8a/	.	8ff\	.	8c\L	-ri-	8ff\L	-ri-	.	.	8a\	8ff\
8C/J	.	8g/J	.	8een\J	.	8C/J	.	8een\J	.	.	.	8g\J	8ee\J
=107	=107	=107	=107	=107	=107	=107	=107	=107	=107	=107	=107	=107	=107
8F\	.	16a/LL	.	16ff\LL	.	8F\	-a	8ff\	-a	2ryy	2ryy	8a/	8ff\
.	.	16A/ 16f/	.	16cc\	.	.	.	.	.	.	.	.	.
8r	.	16A/ 16f/	.	16cc\	.	8r	.	8r	.	.	.	16r	16r
.	.	16A/JJ 16f/	.	16cc\JJ	.	.	.	.	.	.	.	16a/	16ff\
*	*	*tremolo	*	*	*	*	*	*	*	*	*	*	*
4C/	7 x	16G/LL 16e/	.	16cc\LL	.	8.c\L	Sal-	4ee\	Sal-	.	.	8.b-/L	8.gg\L
.	.	16G/ 16e/	.	16bb-\	.	.	.	.	.	.	.	.	.
.	.	16G/ 16e/	.	16gg\	.	.	.	.	.	.	.	.	.
.	.	16G/JJ 16e/	.	16ee\JJ	.	16B-\Jk	.	.	.	.	.	16cc/Jk	16aa\Jk
!	!	!	!	!	!	!LO:LB:g=original	!	!	!	!	!	!	!
=108	=108	=108	=108	=108	=108	=108	=108	=108	=108	=108	=108	=108	=108
8F\	.	16A/LL 16f/	.	16ff\LL	.	8A\	-ve	8ff\	-ve	2ryy	2ryy	8a/	8ff\
.	.	16A/ 16f/	.	16cc\	.	.	.	.	.	.	.	.	.
8r	.	16A/ 16f/	.	16cc\	.	8r	.	8r	.	.	.	16r	16r
.	.	16A/JJ 16f/	.	16cc\JJ	.	.	.	.	.	.	.	16a/	16ff\
4C/	7 x	16G/LL 16e/	.	16cc\LL	.	8.c\L	Sal-	4ee\	Sal-	.	.	8.b-/L	8.gg\L
.	.	16G/ 16e/	.	16bb-\	.	.	.	.	.	.	.	.	.
.	.	16G/ 16e/	.	16gg\	.	.	.	.	.	.	.	.	.
.	.	16G/JJ 16e/	.	16ee\JJ	.	16B-\Jk	.	.	.	.	.	16cc/Jk	16aa\Jk
*	*	*Xtremolo	*	*	*	*	*	*	*	*	*	*	*
!	!	!	!	!LO:LB:g=original	!	!	!	!	!	!	!	!	!
=109	=109	=109	=109	=109	=109	=109	=109	=109	=109	=109	=109	=109	=109
!	!	!	!	!	!	!	!	!	!	!	!	!LO:TX:t=P:problem=mixed beam	!
8F\	.	8A/ 8f/	.	8a/ 8ff/	.	8A\	-ve	8ff\	-ve	2ryy	2ryy	8a/L	8ff\L
8r	.	8r	.	8r	.	8r	.	8r	.	.	.	16.aa\L	16.ccc\L
.	.	.	.	.	.	.	.	.	.	.	.	32gg\JJk	32bb-\JJk
8F\	.	8A/ 8f/	.	8a/ 8ff/	.	4r	.	4r	.	.	.	8ff\L	8aa\L
8r	.	8r	.	8r	.	.	.	.	.	.	.	16.aa\L	16.ccc\L
.	.	.	.	.	.	.	.	.	.	.	.	32gg\JJk	32bb-\JJk
=110	=110	=110	=110	=110	=110	=110	=110	=110	=110	=110	=110	=110	=110
!!mixed beam:problem
!LO:TX:t=P:problem=mixed beam	!	!	!	!	!	!	!	!	!	!	!	!	!
8F\L	.	8A/L 8f/	.	8a/L 8ff/	.	2r	.	2r	.	2ryy	2ryy	16ff\LL	16.aa\LL
.	.	.	.	.	.	.	.	.	.	.	.	16gg\	.
.	.	.	.	.	.	.	.	.	.	.	.	.	32bb-\K
8FF/	.	16.A/L 16.f/	.	16.A/L 16.f/	.	.	.	.	.	.	.	16aa\	16.ccc\
.	.	.	.	.	.	.	.	.	.	.	.	16gg\JJ	.
.	.	32A/JJk 32f/	.	32A/JJk 32f/	.	.	.	.	.	.	.	.	32bb-\JJk
!	!	!	!	!LO:TX:b:t=Finis	!	!	!	!	!	!	!	!	!
8FF/	.	8A/ 8f/	.	4A/ 4f/	.	.	.	.	.	.	.	8ff\	8aa\
8FF/J	.	8r	.	.	.	.	.	.	.	.	.	8r	8r
==	==	==	==	==	==	==	==	==	==	==	==	==	==
*-	*-	*-	*-	*-	*-	*-	*-	*-	*-	*-	*-	*-	*-
!!!system-decoration: [(g1)][(g2)][(g3)][(g4)]g5
!!!RDF**kern: > = above
!!!RDF**kern: < = below
!!!ENC: Andrzej Kubiczek
!!!END: 2021-12-03
!!!EED: Jędrzej Mróz
!!!EST: 2021-12-15
